( generated by ThmqGCU.js /build #201703302108/: Eagle HPGL utility )

#1 = 3000 ( pen XY feed [mm/min] )
#2 = 700 ( pen down feed [mm/min] )
( Z=0 at the top of the workpiece )

G90 G94 G17 G21
G64 P0.05
G92 X63.175 Y0 Z0
G0 Z20
X63.175 Y0
( group 0, uid=633 )
G0 Z2
X63.175 Y0
G1 Z0 F700
F3000
G1 X0
Y48.25
X63.175
Y0
( group 1, uid=450 )
G0 Z2
X59.825 Y1.275
G1 Z0 F700
F3000
G1 Y4.025
( group 2, uid=336 )
G0 Z2
X60.825 Y5.025
G1 Z0 F700
F3000
G1 X61.9
( group 3, uid=341 )
G0 Z2
X60.975 Y6.7
G1 Z0 F700
F3000
G1 X61.9
( group 4, uid=346 )
G0 Z2
X60.125 Y8.375
G1 Z0 F700
F3000
G1 X61.9
( group 5, uid=351 )
G0 Z2
X60.775 Y10.05
G1 Z0 F700
F3000
G1 X61.9
( group 6, uid=356 )
G0 Z2
X60.975 Y11.725
G1 Z0 F700
F3000
G1 X61.9
( group 7, uid=361 )
G0 Z2
X60.175 Y13.4
G1 Z0 F700
F3000
G1 X61.9
( group 8, uid=366 )
G0 Z2
X60.025 Y15.1
G1 Z0 F700
F3000
G1 X61.9
( group 9, uid=375 )
G0 Z2
X60.45 Y16.775
G1 Z0 F700
F3000
G1 X61.9
( group 10, uid=452 )
G0 Z2
X59.825 Y18.125
G1 Z0 F700
F3000
G1 Y46.975
( group 11, uid=449 )
G0 Z2
X61.5 Y46.975
G1 Z0 F700
F3000
G1 Y1.275
( group 12, uid=453 )
G0 Z2
X58.15 Y3.475
G1 Z0 F700
F3000
G1 Y1.275
( group 13, uid=334 )
G0 Z2
X57.625 Y3.35
G1 Z0 F700
F3000
G1 X61.9
( group 14, uid=618 )
G0 Z2
X59.3 Y5.975
G1 Z0 F700
F3000
G1 X59.5 Y5.775
X58.675 Y4.95
X57.525
X56.7 Y5.775
Y6.925
X57.525 Y7.75
X58.675
X59.5 Y6.925
Y5.775
X59.2 Y5.9
X58.55 Y5.25
X57.65
X57 Y5.9
Y6.8
X57.65 Y7.45
X58.55
X59.2 Y6.8
Y5.9
X58.9 Y6.025
X58.425 Y5.55
X57.775
X57.3 Y6.025
Y6.675
X57.775 Y7.15
X58.425
X58.9 Y6.675
Y6.025
X58.6 Y6.15
X58.3 Y5.85
X57.9
X57.6 Y6.15
Y6.55
X57.9 Y6.85
X58.3
X58.6 Y6.55
Y6.15
X58.3 Y6.275
X58.175 Y6.15
X58.025
X57.9 Y6.275
Y6.425
X58.025 Y6.55
X58.175
X58.3 Y6.425
Y6.275
( group 15, uid=282 )
G0 Z2
X57.85 Y6.725
G1 Z0 F700
F3000
G1 X58.025 Y6.8
X58.175
X58.35 Y6.725
X58.475 Y6.6
X58.55 Y6.425
Y6.275
X58.475 Y6.1
X57.075 Y4.7
X56.9 Y4.625
X56.75
X56.575 Y4.7
X56.45 Y4.825
X56.375 Y5
Y5.15
X56.45 Y5.325
X57.85 Y6.725
X58.3 Y6.75
X56.425 Y4.875
X56.625 Y4.675
X58.5 Y6.55
X56.825 Y5.075
( group 16, uid=455 )
G0 Z2
X56.475 Y3.175
G1 Z0 F700
F3000
G1 Y1.275
( group 17, uid=459 )
G0 Z2
X54.8 Y3.175
G1 Z0 F700
F3000
G1 Y1.275
( group 18, uid=462 )
G0 Z2
X53.125 Y3.175
G1 Z0 F700
F3000
G1 Y1.275
( group 19, uid=464 )
G0 Z2
X51.45 Y3.175
G1 Z0 F700
F3000
G1 Y1.275
( group 20, uid=466 )
G0 Z2
X49.775 Y2.925
G1 Z0 F700
F3000
G1 Y1.275
( group 21, uid=319 )
G0 Z2
X49.275 Y2.725
G1 Z0 F700
F3000
G1 X46.6
X46.125 Y2.9
X45.85 Y3.175
X40.3
X39.975 Y2.85
X39.5
X38.125 Y1.45
X37.925 Y1.275
X61.9
Y46.975
X54.275
X54.525 Y46.725
X57.05 Y44.175
X57.325 Y43.525
Y19.975
X57.05 Y19.325
X53.525 Y15.775
Y13.625
X53.25 Y12.975
X50.3 Y10
Y9.7
X49.95 Y8.825
X49.275 Y8.15
X48.4 Y7.8
X47.475
X46.6 Y8.15
X46.5 Y8.25
X40.3
X39.975 Y7.925
X38.225
X34.775 Y4.45
X35.725
X36.8 Y5.55
Y6
X38.125 Y7.325
X39.975
X40.3 Y6.975
X45.85
X46.125 Y7.25
X46.6 Y7.45
X49.275
X49.75 Y7.25
X50 Y6.975
X55.225
Y7.55
X56.575 Y8.9
X55.225 Y10.25
Y12.625
X56.325 Y13.7
Y14.95
X56.1 Y15.175
X55.725 Y16.05
Y16.975
X56.1 Y17.85
X56.75 Y18.525
X57.625 Y18.875
X58.575
X59.425 Y18.525
X60.1 Y17.85
X60.45 Y16.975
Y16.05
X60.1 Y15.175
X59.875 Y14.95
Y13.7
X60.975 Y12.625
Y10.25
X59.625 Y8.9
X60.975 Y7.55
Y5.15
X59.275 Y3.475
X57.925
X57.9
X57.2 Y3.175
X50
X49.75 Y2.9
X49.275 Y2.725
( group 22, uid=470 )
G0 Z2
X48.075 Y2.725
G1 Z0 F700
F3000
G1 Y1.275
( group 23, uid=473 )
G0 Z2
X46.4 Y2.8
G1 Z0 F700
F3000
G1 Y1.275
( group 24, uid=478 )
G0 Z2
X44.725 Y3.175
G1 Z0 F700
F3000
G1 Y1.275
( group 25, uid=484 )
G0 Z2
X43.05 Y3.175
G1 Z0 F700
F3000
G1 Y1.275
( group 26, uid=490 )
G0 Z2
X41.375 Y3.175
G1 Z0 F700
F3000
G1 Y1.275
( group 27, uid=494 )
G0 Z2
X39.7 Y2.85
G1 Z0 F700
F3000
G1 Y1.275
( group 28, uid=332 )
G0 Z2
X38.325 Y1.675
G1 Z0 F700
F3000
G1 X61.9
( group 29, uid=451 )
G0 Z2
X59.825 Y8.675
G1 Z0 F700
F3000
G1 Y9.1
( group 30, uid=619 )
G0 Z2
X59.3 Y11.05
G1 Z0 F700
F3000
G1 X59.5 Y10.85
X58.675 Y10.025
X57.525
X56.7 Y10.85
Y12
X57.525 Y12.825
X58.675
X59.5 Y12
Y10.85
X59.2 Y10.975
X58.55 Y10.325
X57.65
X57 Y10.975
Y11.875
X57.65 Y12.525
X58.55
X59.2 Y11.875
Y10.975
X58.9 Y11.1
X58.425 Y10.625
X57.775
X57.3 Y11.1
Y11.75
X57.775 Y12.225
X58.425
X58.9 Y11.75
Y11.1
X58.6 Y11.225
X58.3 Y10.925
X57.9
X57.6 Y11.225
Y11.625
X57.9 Y11.925
X58.3
X58.6 Y11.625
Y11.225
X58.3 Y11.35
X58.175 Y11.225
X58.025
X57.9 Y11.35
Y11.5
X58.025 Y11.625
X58.175
X58.3 Y11.5
Y11.35
( group 31, uid=275 )
G0 Z2
X58.1 Y11.425
G1 Z0 F700
F3000
G1 Y10.15
( group 32, uid=456 )
G0 Z2
X56.475 Y8.775
G1 Z0 F700
F3000
G1 Y9
( group 33, uid=347 )
G0 Z2
X56.075 Y8.375
G1 Z0 F700
F3000
G1 X49.5
( group 34, uid=467 )
G0 Z2
X49.775 Y7.225
G1 Z0 F700
F3000
G1 Y8.65
( group 35, uid=471 )
G0 Z2
X48.075 Y7.45
G1 Z0 F700
F3000
G1 Y7.8
( group 36, uid=474 )
G0 Z2
X46.4 Y7.375
G1 Z0 F700
F3000
G1 Y8.25
( group 37, uid=479 )
G0 Z2
X44.725 Y6.975
G1 Z0 F700
F3000
G1 Y8.25
( group 38, uid=485 )
G0 Z2
X43.05 Y6.975
G1 Z0 F700
F3000
G1 Y8.25
( group 39, uid=491 )
G0 Z2
X41.375 Y6.975
G1 Z0 F700
F3000
G1 Y8.25
( group 40, uid=495 )
G0 Z2
X39.7 Y7.325
G1 Z0 F700
F3000
G1 Y7.925
( group 41, uid=499 )
G0 Z2
X38.025 Y7.225
G1 Z0 F700
F3000
G1 Y7.725
( group 42, uid=342 )
G0 Z2
X37.5 Y6.7
G1 Z0 F700
F3000
G1 X37.025
( group 43, uid=502 )
G0 Z2
X36.35 Y6.05
G1 Z0 F700
F3000
G1 Y5.075
( group 44, uid=337 )
G0 Z2
X36.3 Y5.025
G1 Z0 F700
F3000
G1 X35.35
( group 45, uid=605 )
G0 Z2
X33.3 Y4.15
G1 Z0 F700
F3000
G1 X33.2 Y3.925
X33.05 Y3.775
X32.825 Y3.675
X32.575
X32.35 Y3.775
X32.2 Y3.925
X32.1 Y4.15
Y6
X32.2 Y6.225
X32.35 Y6.375
X32.575 Y6.475
X32.825
X33.05 Y6.375
X33.2 Y6.225
X33.3 Y6
Y4.15
X33 Y3.75
Y6.4
X32.7 Y6.475
Y3.675
X32.4 Y3.75
Y6.4
( group 46, uid=348 )
G0 Z2
X33.3 Y8.375
G1 Z0 F700
F3000
G1 X33.15
( group 47, uid=506 )
G0 Z2
X34.675 Y9.925
G1 Z0 F700
F3000
G1 Y9.75
( group 48, uid=353 )
G0 Z2
X34.975 Y10.05
G1 Z0 F700
F3000
G1 X34.825
( group 49, uid=503 )
G0 Z2
X36.35 Y11.425
G1 Z0 F700
F3000
G1 Y11.6
( group 50, uid=358 )
G0 Z2
X36.65 Y11.725
G1 Z0 F700
F3000
G1 X36.5
( group 51, uid=254 )
G0 Z2
X37.525 Y10.525
G1 Z0 F700
F3000
G1 X37.7 Y10.6
X37.85
X38.025 Y10.525
X38.15 Y10.4
X38.225 Y10.225
Y10.075
X38.15 Y9.9
X32.95 Y4.7
X32.775 Y4.625
X32.625
X32.45 Y4.7
X32.325 Y4.825
X32.25 Y5
Y5.15
X32.325 Y5.325
X37.525 Y10.525
X37.975 Y10.55
X32.3 Y4.875
X32.5 Y4.675
X38.175 Y10.35
( group 52, uid=253 )
G0 Z2
X39.125 Y10.6
G1 Z0 F700
F3000
G1 X39.3 Y10.525
X39.425 Y10.4
X39.5 Y10.225
Y10.075
X39.425 Y9.9
X39.3 Y9.775
X39.125 Y9.7
X37.7
X37.525 Y9.775
X37.4 Y9.9
X37.325 Y10.075
Y10.225
X37.4 Y10.4
X37.525 Y10.525
X37.7 Y10.6
X39.125
X39.45 Y10.3
X37.375
Y10
X39.45
X37.775 Y10.15
( group 53, uid=255 )
G0 Z2
X38.975 Y9.7
G1 Z0 F700
F3000
G1 X38.8 Y9.775
X38.675 Y9.9
X38.6 Y10.075
Y10.225
X38.675 Y10.4
X38.8 Y10.525
X38.975 Y10.6
X48
X48.175 Y10.525
X48.3 Y10.4
X48.375 Y10.225
Y10.075
X48.3 Y9.9
X48.175 Y9.775
X48 Y9.7
X38.975
X38.65 Y10
X48.325
Y10.3
X38.65
X47.925 Y10.15
( group 54, uid=611 )
G0 Z2
X47.925 Y10.15
G1 Z0 F700
F3000
G1 X47.075
G1 X47.075000 Y10.150000
G1 X47.139702 Y10.475281
G1 X47.323959 Y10.751041
G1 X47.599719 Y10.935298
G1 X47.925000 Y11.000000
G1 X48.250281 Y10.935298
G1 X48.526041 Y10.751041
G1 X48.710298 Y10.475281
G1 X48.775000 Y10.150000
G1 X48.710298 Y9.824719
G1 X48.526041 Y9.548959
G1 X48.250281 Y9.364702
G1 X47.925000 Y9.300000
G1 X47.599719 Y9.364702
G1 X47.323959 Y9.548959
G1 X47.139702 Y9.824719
G1 X47.075000 Y10.150000

G1 X47.3
G1 X47.300000 Y10.150000
G1 X47.347575 Y10.389177
G1 X47.483058 Y10.591942
G1 X47.685823 Y10.727425
G1 X47.925000 Y10.775000
G1 X48.164177 Y10.727425
G1 X48.366942 Y10.591942
G1 X48.502425 Y10.389177
G1 X48.550000 Y10.150000
G1 X48.502425 Y9.910823
G1 X48.366942 Y9.708058
G1 X48.164177 Y9.572575
G1 X47.925000 Y9.525000
G1 X47.685823 Y9.572575
G1 X47.483058 Y9.708058
G1 X47.347575 Y9.910823
G1 X47.300000 Y10.150000

G1 X47.525
G1 X47.525000 Y10.150000
G1 X47.555448 Y10.303073
G1 X47.642157 Y10.432843
G1 X47.771927 Y10.519552
G1 X47.925000 Y10.550000
G1 X48.078073 Y10.519552
G1 X48.207843 Y10.432843
G1 X48.294552 Y10.303073
G1 X48.325000 Y10.150000
G1 X48.294552 Y9.996927
G1 X48.207843 Y9.867157
G1 X48.078073 Y9.780448
G1 X47.925000 Y9.750000
G1 X47.771927 Y9.780448
G1 X47.642157 Y9.867157
G1 X47.555448 Y9.996927
G1 X47.525000 Y10.150000

( group 55, uid=256 )
G0 Z2
X48.25 Y10.1
G1 Z0 F700
F3000
G1 X48.2 Y9.975
X48.1 Y9.875
X47.975 Y9.825
X47.875
X47.75 Y9.875
X47.65 Y9.975
X47.6 Y10.1
Y16.55
X47.65 Y16.675
X47.75 Y16.775
X47.875 Y16.825
X47.975
X48.1 Y16.775
X48.2 Y16.675
X48.25 Y16.55
Y10.1
X47.925 Y9.85
Y16.825
( group 56, uid=616 )
G0 Z2
X47.25 Y17.2
G1 Z0 F700
F3000
G1 X47.05 Y17.4
X48.825
Y15.625
X47.05
Y17.4
X47.35 Y17.2
Y15.825
X47.65
Y17.2
X47.95
Y15.825
X48.225
Y17.2
X48.525
Y15.825
( group 57, uid=262 )
G0 Z2
X51.425 Y16.55
G1 Z0 F700
F3000
G1 X51.475 Y16.675
X51.575 Y16.775
X51.7 Y16.825
X51.8
X51.925 Y16.775
X52.025 Y16.675
X52.075 Y16.55
Y13.925
X52.025 Y13.8
X51.925 Y13.7
X51.8 Y13.65
X51.7
X51.575 Y13.7
X51.475 Y13.8
X51.425 Y13.925
Y16.55
X51.75 Y16.825
Y13.675
Y13.975
( group 58, uid=263 )
G0 Z2
X51.575 Y14.25
G1 Z0 F700
F3000
G1 X51.7 Y14.3
X51.8
X51.925 Y14.25
X52.025 Y14.15
X52.075 Y14.025
Y13.925
X52.025 Y13.8
X48.1 Y9.875
X47.975 Y9.825
X47.875
X47.75 Y9.875
X47.65 Y9.975
X47.6 Y10.1
Y10.2
X47.65 Y10.325
X51.575 Y14.25
X51.975 Y14.2
X47.7 Y9.925
( group 59, uid=480 )
G0 Z2
X44.725 Y12.075
G1 Z0 F700
F3000
G1 Y17.475
( group 60, uid=377 )
G0 Z2
X45.575 Y16.775
G1 Z0 F700
F3000
G1 X41.525
( group 61, uid=300 )
G0 Z2
X40.15 Y20.6
G1 Z0 F700
F3000
G1 X40.275 Y20.65
X40.375
X40.5 Y20.6
X40.6 Y20.5
X40.65 Y20.375
Y20.275
X40.6 Y20.15
X30.325 Y9.875
X30.2 Y9.825
X30.1
X29.975 Y9.875
X29.875 Y9.975
X29.825 Y10.1
Y10.2
X29.875 Y10.325
X40.15 Y20.6
X40.55 Y20.55
X29.925 Y9.925
X30.15 Y10.15
( group 62, uid=301 )
G0 Z2
X29.825 Y10.2
G1 Z0 F700
F3000
G1 X29.875 Y10.325
X29.975 Y10.425
X30.1 Y10.475
X30.2
X30.325 Y10.425
X30.425 Y10.325
X30.475 Y10.2
Y6.3
X30.425 Y6.175
X30.325 Y6.075
X30.2 Y6.025
X30.1
X29.975 Y6.075
X29.875 Y6.175
X29.825 Y6.3
Y10.2
X30.15 Y10.475
Y6.05
Y6.35
( group 63, uid=302 )
G0 Z2
X29.825 Y6.4
G1 Z0 F700
F3000
G1 X29.875 Y6.525
X29.975 Y6.625
X30.1 Y6.675
X30.2
X30.325 Y6.625
X30.425 Y6.525
X30.475 Y6.4
Y5.025
X30.425 Y4.9
X30.325 Y4.8
X30.2 Y4.75
X30.1
X29.975 Y4.8
X29.875 Y4.9
X29.825 Y5.025
Y6.4
X30.15 Y6.675
Y4.775
( group 64, uid=281 )
G0 Z2
X29.7 Y5.15
G1 Z0 F700
F3000
G1 X29.775 Y5.325
X29.9 Y5.45
X30.075 Y5.525
X30.225
X30.4 Y5.45
X30.525 Y5.325
X30.6 Y5.15
Y2.475
X30.525 Y2.3
X30.4 Y2.175
X30.225 Y2.1
X30.075
X29.9 Y2.175
X29.775 Y2.3
X29.7 Y2.475
Y5.15
X30 Y5.475
Y2.15
X30.3
Y5.475
( group 65, uid=606 )
G0 Z2
X30.75 Y4.15
G1 Z0 F700
F3000
G1 X30.65 Y3.925
X30.5 Y3.775
X30.275 Y3.675
X30.025
X29.8 Y3.775
X29.65 Y3.925
X29.55 Y4.15
Y6
X29.65 Y6.225
X29.8 Y6.375
X30.025 Y6.475
X30.275
X30.5 Y6.375
X30.65 Y6.225
X30.75 Y6
Y4.15
X30.45 Y3.75
Y6.4
X30.15 Y6.475
Y3.675
X29.85 Y3.75
Y6.4
( group 66, uid=243 )
G0 Z2
X28.075 Y5
G1 Z0 F700
F3000
G1 X28 Y4.825
X27.875 Y4.7
X27.7 Y4.625
X27.55
X27.375 Y4.7
X27.25 Y4.825
X27.175 Y5
Y10.225
X27.25 Y10.4
X27.375 Y10.525
X27.55 Y10.6
X27.7
X27.875 Y10.525
X28 Y10.4
X28.075 Y10.225
Y5
X27.775 Y4.675
Y10.55
X27.475
Y4.675
X27.625 Y10.15
( group 67, uid=244 )
G0 Z2
X27.7 Y10.6
G1 Z0 F700
F3000
G1 X27.875 Y10.525
X28 Y10.4
X28.075 Y10.225
Y10.075
X28 Y9.9
X27.875 Y9.775
X27.7 Y9.7
X22.45
X22.275 Y9.775
X22.15 Y9.9
X22.075 Y10.075
Y10.225
X22.15 Y10.4
X22.275 Y10.525
X22.45 Y10.6
X27.7
X28.025 Y10.3
X22.125
Y10
X28.025
( group 68, uid=212 )
G0 Z2
X25.775 Y12.775
G1 Z0 F700
F3000
G1 Y13.075
X26.075
Y12.775
X25.775
( group 69, uid=213 )
G0 Z2
X26.675 Y14.25
G1 Z0 F700
F3000
G1 X26.975 Y14.55
X27.55
X27.85 Y14.25
Y13.975
X27.55 Y13.675
X27.275
( group 70, uid=214 )
G0 Z2
X27.55 Y13.675
G1 Z0 F700
F3000
G1 X27.85 Y13.375
Y13.075
X27.55 Y12.775
X26.975
X26.675 Y13.075
( group 71, uid=211 )
G0 Z2
X24 Y13.075
G1 Z0 F700
F3000
G1 Y14.25
X24.3 Y14.55
X24.9
X25.2 Y14.25
Y13.075
X24.9 Y12.775
X24.3
X24 Y13.075
X25.2 Y14.25
( group 72, uid=518 )
G0 Z2
X24.625 Y15.9
G1 Z0 F700
F3000
G1 Y16.2
( group 73, uid=291 )
G0 Z2
X23.975 Y17.5
G1 Z0 F700
F3000
G1 X23.85 Y17.45
X23.75
X23.625 Y17.5
X23.525 Y17.6
X23.475 Y17.725
Y17.825
X23.525 Y17.95
X24.9 Y19.325
X25.025 Y19.375
X25.125
X25.25 Y19.325
X25.35 Y19.225
X25.4 Y19.1
Y19
X25.35 Y18.875
X23.975 Y17.5
X23.575 Y17.55
X25.3 Y19.275
X25.075 Y19.05
( group 74, uid=292 )
G0 Z2
X25.4 Y19
G1 Z0 F700
F3000
G1 X25.35 Y18.875
X25.25 Y18.775
X25.125 Y18.725
X25.025
X24.9 Y18.775
X24.8 Y18.875
X24.75 Y19
Y24.175
X24.8 Y24.3
X24.9 Y24.4
X25.025 Y24.45
X25.125
X25.25 Y24.4
X25.35 Y24.3
X25.4 Y24.175
Y19
X25.075 Y18.75
Y24.45
( group 75, uid=293 )
G0 Z2
X25.25 Y23.85
G1 Z0 F700
F3000
G1 X25.125 Y23.8
X25.025
X24.9 Y23.85
X24.8 Y23.95
X24.75 Y24.075
Y24.175
X24.8 Y24.3
X27.45 Y26.95
X27.575 Y27
X27.675
X27.8 Y26.95
X27.9 Y26.85
X27.95 Y26.725
Y26.625
X27.9 Y26.5
X25.25 Y23.85
X24.85 Y23.9
X27.85 Y26.9
X27.625 Y26.675
( group 76, uid=294 )
G0 Z2
X27.95 Y26.625
G1 Z0 F700
F3000
G1 X27.9 Y26.5
X27.8 Y26.4
X27.675 Y26.35
X27.575
X27.45 Y26.4
X27.35 Y26.5
X27.3 Y26.625
Y29.25
X27.35 Y29.375
X27.45 Y29.475
X27.575 Y29.525
X27.675
X27.8 Y29.475
X27.9 Y29.375
X27.95 Y29.25
Y26.625
X27.625 Y26.375
Y29.525
( group 77, uid=295 )
G0 Z2
X27.725 Y29.25
G1 Z0 F700
F3000
G1 Y29.15
X27.675 Y29.1
X27.575
X26.25 Y30.425
Y30.525
X26.3 Y30.575
X26.4
X27.725 Y29.25
( group 78, uid=217 )
G0 Z2
X24.975 Y29.25
G1 Z0 F700
F3000
G1 X25.025 Y29.3
X25.125
X25.175 Y29.25
Y26.625
X25.125 Y26.575
X25.025
X24.975 Y26.625
Y29.25
( group 79, uid=564 )
G0 Z2
X24.325 Y28.725
G1 Z0 F700
F3000
G1 X24.175 Y28.8
X24.025 Y28.95
X23.95 Y29.1
Y29.3
X24.025 Y29.45
X24.175 Y29.6
X24.325 Y29.675
X25.825
X25.975 Y29.6
X26.125 Y29.45
X26.2 Y29.3
Y29.1
X26.125 Y28.95
X25.975 Y28.8
X25.825 Y28.725
X24.325
X24 Y29.05
X26.15
Y29.35
X24
( group 80, uid=312 )
G0 Z2
X23.25 Y27.625
G1 Z0 F700
F3000
G1 X22.775 Y28.125
X22.75 Y28.175
X22.275 Y27.7
X22.1 Y27.625
X23.25
( group 81, uid=524 )
G0 Z2
X22.95 Y27.625
G1 Z0 F700
F3000
G1 Y27.95
( group 82, uid=583 )
G0 Z2
X21.975 Y25.975
G1 Z0 F700
F3000
G1 X21.775 Y26.175
X23.3
Y24.625
X21.775
Y26.175
X22.075 Y25.975
Y24.825
X22.375
Y25.975
X22.7
Y24.825
X23
Y25.975
( group 83, uid=220 )
G0 Z2
X22.425 Y25.45
G1 Z0 F700
F3000
G1 X22.475 Y25.5
X22.575
X22.625 Y25.45
Y22.175
X22.575 Y22.125
X22.475
X22.425 Y22.175
Y25.45
X22.525 Y22.225
X22.475 Y22.325
X22.575
X22.625 Y22.275
Y22.175
X21.325 Y20.85
X21.225
X21.175 Y20.9
Y21
X22.475 Y22.325
X21.275 Y20.95
X21.325 Y21.05
X21.375 Y21
Y20.9
X21.325 Y20.85
X12.325
X12.275 Y20.9
Y21
X12.325 Y21.05
X21.325
( group 84, uid=321 )
G0 Z2
X22.6 Y20.075
G1 Z0 F700
F3000
G1 X22.55 Y20.025
X22.975
X23.3 Y19.875
Y20.75
X22.6 Y20.075
( group 85, uid=523 )
G0 Z2
X22.95 Y20.025
G1 Z0 F700
F3000
G1 Y20.4
( group 86, uid=387 )
G0 Z2
X23.3 Y20.125
G1 Z0 F700
F3000
G1 X22.65
( group 87, uid=584 )
G0 Z2
X22.525 Y17.775
G1 Z0 F700
F3000
G1 X21.775
G1 X21.775000 Y17.775000
G1 X21.832090 Y18.062013
G1 X21.994670 Y18.305330
G1 X22.237987 Y18.467910
G1 X22.525000 Y18.525000
G1 X22.812013 Y18.467910
G1 X23.055330 Y18.305330
G1 X23.217910 Y18.062013
G1 X23.275000 Y17.775000
G1 X23.217910 Y17.487987
G1 X23.055330 Y17.244670
G1 X22.812013 Y17.082090
G1 X22.525000 Y17.025000
G1 X22.237987 Y17.082090
G1 X21.994670 Y17.244670
G1 X21.832090 Y17.487987
G1 X21.775000 Y17.775000

G1 X22.125
G1 X22.125000 Y17.775000
G1 X22.155448 Y17.928073
G1 X22.242157 Y18.057843
G1 X22.371927 Y18.144552
G1 X22.525000 Y18.175000
G1 X22.678073 Y18.144552
G1 X22.807843 Y18.057843
G1 X22.894552 Y17.928073
G1 X22.925000 Y17.775000
G1 X22.894552 Y17.621927
G1 X22.807843 Y17.492157
G1 X22.678073 Y17.405448
G1 X22.525000 Y17.375000
G1 X22.371927 Y17.405448
G1 X22.242157 Y17.492157
G1 X22.155448 Y17.621927
G1 X22.125000 Y17.775000

( group 88, uid=290 )
G0 Z2
X22.475 Y17.45
G1 Z0 F700
F3000
G1 X22.35 Y17.5
X22.25 Y17.6
X22.2 Y17.725
Y17.825
X22.25 Y17.95
X22.35 Y18.05
X22.475 Y18.1
X23.85
X23.975 Y18.05
X24.075 Y17.95
X24.125 Y17.825
Y17.725
X24.075 Y17.6
X23.975 Y17.5
X23.85 Y17.45
X22.475
X22.2 Y17.775
X24.1
X23.8
( group 89, uid=515 )
G0 Z2
X26.3 Y17.75
G1 Z0 F700
F3000
G1 Y15.725
( group 90, uid=522 )
G0 Z2
X22.95 Y15.225
G1 Z0 F700
F3000
G1 Y15.55
( group 91, uid=370 )
G0 Z2
X21.475 Y15.1
G1 Z0 F700
F3000
G1 X21.1
( group 92, uid=530 )
G0 Z2
X21.275 Y14.9
G1 Z0 F700
F3000
G1 Y15.675
( group 93, uid=209 )
G0 Z2
X19.85 Y14.55
G1 Z0 F700
F3000
G1 Y12.775
( group 94, uid=207 )
G0 Z2
X18.675 Y12.775
G1 Z0 F700
F3000
G1 Y14.55
( group 95, uid=208 )
G0 Z2
X18.675 Y13.675
G1 Z0 F700
F3000
G1 X19.85
( group 96, uid=529 )
G0 Z2
X21.275 Y12.075
G1 Z0 F700
F3000
G1 Y12.875
( group 97, uid=322 )
G0 Z2
X21.55 Y12.325
G1 Z0 F700
F3000
G1 X21.2 Y13
Y12.5
X21.025 Y12.075
X21.275
X21.55 Y12.325
( group 98, uid=210 )
G0 Z2
X22.225 Y13.975
G1 Z0 F700
F3000
G1 X22.825 Y12.775
X23.425 Y13.975
( group 99, uid=241 )
G0 Z2
X22.6 Y10.6
G1 Z0 F700
F3000
G1 X22.775 Y10.525
X22.9 Y10.4
X22.975 Y10.225
Y10.075
X22.9 Y9.9
X22.775 Y9.775
X22.6 Y9.7
X18.65
X18.475 Y9.775
X18.35 Y9.9
X18.275 Y10.075
Y10.225
X18.35 Y10.4
X18.475 Y10.525
X18.65 Y10.6
X22.6
X22.925 Y10.3
X18.325
Y10
X22.925
X18.725 Y10.15
( group 100, uid=242 )
G0 Z2
X18.475 Y10.525
G1 Z0 F700
F3000
G1 X18.65 Y10.6
X18.825 Y10.575
X18.975 Y10.525
X19.1 Y10.4
X19.175 Y10.225
X19.15 Y10.05
X19.1 Y9.9
X17.7 Y8.525
X17.525 Y8.45
X17.35 Y8.475
X17.2 Y8.525
X17.075 Y8.65
X17 Y8.825
X17.025 Y9
X17.075 Y9.15
X18.475 Y10.525
X18.925 Y10.55
X17.05 Y8.725
X17.25 Y8.5
X19.125 Y10.325
( group 101, uid=608 )
G0 Z2
X18.225 Y9.375
G1 Z0 F700
F3000
G1 X18.375 Y9.3
X18.525 Y9.15
X18.6 Y9
Y8.8
X18.525 Y8.65
X18.375 Y8.5
X18.225 Y8.425
X16.7
X16.55 Y8.5
X16.4 Y8.65
X16.325 Y8.8
Y9
X16.4 Y9.15
X16.55 Y9.3
X16.7 Y9.375
X18.225
X18.55 Y9.05
X16.375
Y8.75
X18.55
( group 102, uid=532 )
G0 Z2
X19.6 Y7.625
G1 Z0 F700
F3000
G1 Y7.6
( group 103, uid=609 )
G0 Z2
X18.225 Y6.825
G1 Z0 F700
F3000
G1 X18.375 Y6.75
X18.525 Y6.6
X18.6 Y6.45
Y6.25
X18.525 Y6.1
X18.375 Y5.95
X18.225 Y5.875
X16.7
X16.55 Y5.95
X16.4 Y6.1
X16.325 Y6.25
Y6.45
X16.4 Y6.6
X16.55 Y6.75
X16.7 Y6.825
X18.225
X18.55 Y6.5
X16.375
Y6.2
X18.55
( group 104, uid=307 )
G0 Z2
X19.1 Y5.325
G1 Z0 F700
F3000
G1 X19.175 Y5.15
Y5
X19.1 Y4.825
X18.975 Y4.7
X18.8 Y4.625
X18.65
X18.475 Y4.7
X17.075 Y6.1
X17 Y6.275
Y6.425
X17.075 Y6.6
X17.2 Y6.725
X17.375 Y6.8
X17.525
X17.7 Y6.725
X19.1 Y5.325
X19.125 Y4.875
X17.25 Y6.75
X17.05 Y6.55
X18.925 Y4.675
( group 105, uid=308 )
G0 Z2
X17.4 Y2.225
G1 Z0 F700
F3000
G1 X17.275 Y2.275
X17.175 Y2.375
X17.125 Y2.5
Y2.6
X17.175 Y2.725
X17.275 Y2.825
X17.4 Y2.875
X25.125
X25.25 Y2.825
X25.35 Y2.725
X25.4 Y2.6
Y2.5
X25.35 Y2.375
X25.25 Y2.275
X25.125 Y2.225
X17.4
X17.125 Y2.55
X25.375
( group 106, uid=305 )
G0 Z2
X25.45 Y2.8
G1 Z0 F700
F3000
G1 X25.5 Y2.65
X25.525 Y2.475
X25.45 Y2.3
X25.325 Y2.175
X25.175 Y2.125
X25 Y2.1
X24.825 Y2.175
X22.15 Y4.825
X22.1 Y4.975
X22.075 Y5.15
X22.15 Y5.325
X22.275 Y5.45
X22.425 Y5.5
X22.6 Y5.525
X22.775 Y5.45
X25.45 Y2.8
X25.475 Y2.375
X22.325 Y5.475
X22.125 Y5.25
X25.275 Y2.15
X22.525 Y5.075
( group 107, uid=306 )
G0 Z2
X22.6 Y5.525
G1 Z0 F700
F3000
G1 X22.775 Y5.45
X22.9 Y5.325
X22.975 Y5.15
Y5
X22.9 Y4.825
X22.775 Y4.7
X22.6 Y4.625
X18.65
X18.475 Y4.7
X18.35 Y4.825
X18.275 Y5
Y5.15
X18.35 Y5.325
X18.475 Y5.45
X18.65 Y5.525
X22.6
X22.925 Y5.225
X18.325
Y4.925
X22.925
X18.725 Y5.075
( group 108, uid=286 )
G0 Z2
X15.25 Y5.025
G1 Z0 F700
F3000
G1 X15.2 Y4.9
X15.1 Y4.8
X14.975 Y4.75
X14.875
X14.75 Y4.8
X14.65 Y4.9
X14.6 Y5.025
Y17.825
X14.65 Y17.95
X14.75 Y18.05
X14.875 Y18.1
X14.975
X15.1 Y18.05
X15.2 Y17.95
X15.25 Y17.825
Y5.025
X14.925 Y4.775
Y18.1
( group 109, uid=287 )
G0 Z2
X14.8 Y17.125
G1 Z0 F700
F3000
G1 X14.575 Y17.225
X14.375 Y17.425
X14.275 Y17.65
Y17.9
X14.375 Y18.125
X14.575 Y18.325
X14.8 Y18.425
X20.125
X20.35 Y18.325
X20.55 Y18.125
X20.65 Y17.9
Y17.65
X20.55 Y17.425
X20.35 Y17.225
X20.125 Y17.125
X14.8
X14.375 Y17.45
X20.55
X20.625 Y17.775
X14.275
X14.375 Y18.1
X20.55
( group 110, uid=586 )
G0 Z2
X20 Y17.775
G1 Z0 F700
F3000
G1 X19.25
G1 X19.250000 Y17.775000
G1 X19.307090 Y18.062013
G1 X19.469670 Y18.305330
G1 X19.712987 Y18.467910
G1 X20.000000 Y18.525000
G1 X20.287013 Y18.467910
G1 X20.530330 Y18.305330
G1 X20.692910 Y18.062013
G1 X20.750000 Y17.775000
G1 X20.692910 Y17.487987
G1 X20.530330 Y17.244670
G1 X20.287013 Y17.082090
G1 X20.000000 Y17.025000
G1 X19.712987 Y17.082090
G1 X19.469670 Y17.244670
G1 X19.307090 Y17.487987
G1 X19.250000 Y17.775000

G1 X19.6
G1 X19.600000 Y17.775000
G1 X19.630448 Y17.928073
G1 X19.717157 Y18.057843
G1 X19.846927 Y18.144552
G1 X20.000000 Y18.175000
G1 X20.153073 Y18.144552
G1 X20.282843 Y18.057843
G1 X20.369552 Y17.928073
G1 X20.400000 Y17.775000
G1 X20.369552 Y17.621927
G1 X20.282843 Y17.492157
G1 X20.153073 Y17.405448
G1 X20.000000 Y17.375000
G1 X19.846927 Y17.405448
G1 X19.717157 Y17.492157
G1 X19.630448 Y17.621927
G1 X19.600000 Y17.775000

( group 111, uid=284 )
G0 Z2
X19.875 Y17.125
G1 Z0 F700
F3000
G1 X19.65 Y17.225
X19.45 Y17.425
X19.35 Y17.65
Y17.9
X19.45 Y18.125
X19.65 Y18.325
X19.875 Y18.425
X22.65
X22.875 Y18.325
X23.075 Y18.125
X23.175 Y17.9
Y17.65
X23.075 Y17.425
X22.875 Y17.225
X22.65 Y17.125
X19.875
X19.45 Y17.45
X23.075
X23.15 Y17.775
X19.35
X19.45 Y18.1
X23.075
( group 112, uid=219 )
G0 Z2
X22.475 Y25.3
G1 Z0 F700
F3000
G1 X22.425 Y25.35
Y25.45
X22.475 Y25.5
X23.85
X23.9 Y25.45
Y25.35
X23.85 Y25.3
X22.475
X23.8 Y25.4
X23.85 Y25.3
X23.75
X23.7 Y25.35
Y25.45
X25.025 Y26.775
X25.125
X25.175 Y26.725
Y26.625
X23.85 Y25.3
( group 113, uid=513 )
G0 Z2
X27.975 Y24.5
G1 Z0 F700
F3000
G1 Y15.85
( group 114, uid=511 )
G0 Z2
X29.65 Y14.7
G1 Z0 F700
F3000
G1 Y27.6
( group 115, uid=510 )
G0 Z2
X31.325 Y27.275
G1 Z0 F700
F3000
G1 Y16.375
( group 116, uid=378 )
G0 Z2
X31.7 Y16.775
G1 Z0 F700
F3000
G1 X25.3
( group 117, uid=369 )
G0 Z2
X30.025 Y15.1
G1 Z0 F700
F3000
G1 X28.925
( group 118, uid=383 )
G0 Z2
X33.375 Y18.45
G1 Z0 F700
F3000
G1 X26.75
( group 119, uid=386 )
G0 Z2
X33.45 Y20.125
G1 Z0 F700
F3000
G1 X26.85
( group 120, uid=393 )
G0 Z2
X33.45 Y21.8
G1 Z0 F700
F3000
G1 X26.85
( group 121, uid=320 )
G0 Z2
X33.45 Y23.225
G1 Z0 F700
F3000
G1 Y27.85
X33.175 Y27.575
X32.475 Y27.275
X30.375
X29.675 Y27.575
X29.45 Y27.8
X29.4 Y27.825
Y26.325
X29.125 Y25.675
X28.625 Y25.175
X26.85 Y23.4
Y18.7
X26.575 Y18.05
X26.075 Y17.55
X24.8 Y16.275
X24.15 Y16
X23.925
X23.8 Y15.875
X22.975 Y15.55
X22.1
X21.775 Y15.675
X20.75
X20.675 Y15.65
X21 Y15.325
X21.2 Y14.825
X21.375 Y15.05
X21.875 Y15.275
X22.4 Y15.325
X22.825 Y15.175
X23.125 Y15.275
X23.15 Y15.325
X23.2 Y15.375
X23.55 Y15.7
X23.6 Y15.725
X24.025 Y15.9
X25.175
X25.65 Y15.7
X25.925 Y15.425
X26.2 Y15.7
X26.275 Y15.725
X26.7 Y15.9
X27.825
X28.325 Y15.7
X28.625 Y15.4
X29 Y15.025
X29.2 Y14.525
Y14.275
X33.45 Y18.525
Y23.225
( group 122, uid=399 )
G0 Z2
X33.45 Y23.475
G1 Z0 F700
F3000
G1 X26.925
( group 123, uid=402 )
G0 Z2
X33.45 Y25.15
G1 Z0 F700
F3000
G1 X28.6
( group 124, uid=508 )
G0 Z2
X33 Y27.5
G1 Z0 F700
F3000
G1 Y18.05
( group 125, uid=249 )
G0 Z2
X35.05 Y18.05
G1 Z0 F700
F3000
G1 X35.15 Y18.075
X35.275 Y18.1
X35.4 Y18.05
X35.5 Y17.95
X35.525 Y17.85
X35.55 Y17.725
X35.5 Y17.6
X27.8 Y9.875
X27.7 Y9.85
X27.575 Y9.825
X27.45 Y9.875
X27.35 Y9.975
X27.325 Y10.075
X27.3 Y10.2
X27.35 Y10.325
X35.05 Y18.05
X35.45 Y18
X27.4 Y9.925
( group 126, uid=517 )
G0 Z2
X24.625 Y8.25
G1 Z0 F700
F3000
G1 Y6.15
( group 127, uid=343 )
G0 Z2
X25.7 Y6.7
G1 Z0 F700
F3000
G1 X24.075
( group 128, uid=521 )
G0 Z2
X22.95 Y7.925
G1 Z0 F700
F3000
G1 Y7.325
( group 129, uid=317 )
G0 Z2
X21.6 Y7.325
G1 Z0 F700
F3000
G1 X23.45
X24.775 Y6
Y5.55
X25.55 Y4.775
Y6.3
X25.7 Y6.7
Y8.25
X23.8
X23.45 Y7.925
X21.6
X21.275 Y8.25
X19.95
X19.75 Y7.8
X19.575 Y7.625
X19.75 Y7.45
X19.95 Y6.975
X21.275
X21.6 Y7.325
( group 130, uid=528 )
G0 Z2
X21.275 Y8.25
G1 Z0 F700
F3000
G1 Y6.975
( group 131, uid=614 )
G0 Z2
X23.075 Y4.975
G1 Z0 F700
F3000
G1 X23.275 Y4.775
X22.825 Y4.325
X22.225
X21.775 Y4.775
Y5.375
X22.225 Y5.825
X22.825
X23.275 Y5.375
Y4.775
X23 Y4.875
X22.725 Y4.6
X22.325
X22.05 Y4.875
Y5.275
X22.325 Y5.55
X22.725
X23 Y5.275
Y4.875
X22.725 Y5
X22.6 Y4.875
X22.45
X22.325 Y5
Y5.15
X22.45 Y5.275
X22.6
X22.725 Y5.15
Y5
( group 132, uid=338 )
G0 Z2
X25.55 Y5.025
G1 Z0 F700
F3000
G1 X25.275
( group 133, uid=607 )
G0 Z2
X28.225 Y4.15
G1 Z0 F700
F3000
G1 X28.125 Y3.925
X27.975 Y3.775
X27.75 Y3.675
X27.5
X27.275 Y3.775
X27.125 Y3.925
X27.025 Y4.15
Y6
X27.125 Y6.225
X27.275 Y6.375
X27.5 Y6.475
X27.75
X27.975 Y6.375
X28.125 Y6.225
X28.225 Y6
Y4.15
X27.925 Y3.75
Y6.4
X27.625 Y6.475
Y3.675
X27.325 Y3.75
Y6.4
( group 134, uid=304 )
G0 Z2
X30.225 Y3
G1 Z0 F700
F3000
G1 X30.4 Y2.925
X30.525 Y2.8
X30.6 Y2.625
Y2.475
X30.525 Y2.3
X30.4 Y2.175
X30.225 Y2.1
X25
X24.825 Y2.175
X24.7 Y2.3
X24.625 Y2.475
Y2.625
X24.7 Y2.8
X24.825 Y2.925
X25 Y3
X30.225
X30.55 Y2.7
X24.675
Y2.4
X30.55
X25.075 Y2.55
( group 135, uid=615 )
G0 Z2
X23.075 Y10.05
G1 Z0 F700
F3000
G1 X23.275 Y9.85
X22.825 Y9.4
X22.225
X21.775 Y9.85
Y10.45
X22.225 Y10.9
X22.825
X23.275 Y10.45
Y9.85
X23 Y9.95
X22.725 Y9.675
X22.325
X22.05 Y9.95
Y10.35
X22.325 Y10.625
X22.725
X23 Y10.35
Y9.95
X22.725 Y10.075
X22.6 Y9.95
X22.45
X22.325 Y10.075
Y10.225
X22.45 Y10.35
X22.6
X22.725 Y10.225
Y10.075
( group 136, uid=206 )
G0 Z2
X16.9 Y12.775
G1 Z0 F700
F3000
G1 Y14.55
X17.5 Y13.975
X18.075 Y14.55
Y12.775
( group 137, uid=364 )
G0 Z2
X13.125 Y13.4
G1 Z0 F700
F3000
G1 X12.675
( group 138, uid=359 )
G0 Z2
X13.125 Y11.725
G1 Z0 F700
F3000
G1 X12.675
( group 139, uid=354 )
G0 Z2
X13.125 Y10.05
G1 Z0 F700
F3000
G1 X12.675
( group 140, uid=349 )
G0 Z2
X13.125 Y8.375
G1 Z0 F700
F3000
G1 X11.55
( group 141, uid=545 )
G0 Z2
X11.2 Y8.025
G1 Z0 F700
F3000
G1 Y1.275
( group 142, uid=335 )
G0 Z2
X14.125 Y3.35
G1 Z0 F700
F3000
G1 X1.275
( group 143, uid=556 )
G0 Z2
X4.5 Y6.35
G1 Z0 F700
F3000
G1 Y1.275
( group 144, uid=553 )
G0 Z2
X6.175 Y4.75
G1 Z0 F700
F3000
G1 Y1.275
( group 145, uid=340 )
G0 Z2
X5.825 Y5.025
G1 Z0 F700
F3000
G1 X1.275
( group 146, uid=345 )
G0 Z2
X4.425 Y6.7
G1 Z0 F700
F3000
G1 X1.275
( group 147, uid=350 )
G0 Z2
X3.025 Y8.375
G1 Z0 F700
F3000
G1 X1.275
( group 148, uid=558 )
G0 Z2
X2.825 Y8.6
G1 Z0 F700
F3000
G1 Y1.275
( group 149, uid=550 )
G0 Z2
X7.85 Y4.75
G1 Z0 F700
F3000
G1 Y1.275
( group 150, uid=547 )
G0 Z2
X9.525 Y5.8
G1 Z0 F700
F3000
G1 Y1.275
( group 151, uid=339 )
G0 Z2
X13.125 Y5.025
G1 Z0 F700
F3000
G1 X8.775
( group 152, uid=587 )
G0 Z2
X8.5 Y7.25
G1 Z0 F700
F3000
G1 X8.7 Y7.05
X7.875 Y6.225
X6.725
X5.9 Y7.05
Y8.2
X6.725 Y9.025
X7.875
X8.7 Y8.2
Y7.05
X8.4 Y7.175
X7.75 Y6.525
X6.85
X6.2 Y7.175
Y8.075
X6.85 Y8.725
X7.75
X8.4 Y8.075
Y7.175
X8.1 Y7.3
X7.625 Y6.825
X6.975
X6.5 Y7.3
Y7.95
X6.975 Y8.425
X7.625
X8.1 Y7.95
Y7.3
X7.8 Y7.425
X7.5 Y7.125
X7.1
X6.8 Y7.425
Y7.825
X7.1 Y8.125
X7.5
X7.8 Y7.825
Y7.425
X7.5 Y7.55
X7.375 Y7.425
X7.225
X7.1 Y7.55
Y7.7
X7.225 Y7.825
X7.375
X7.5 Y7.7
Y7.55
( group 153, uid=588 )
G0 Z2
X8.5 Y12.325
G1 Z0 F700
F3000
G1 X8.7 Y12.125
X7.875 Y11.3
X6.725
X5.9 Y12.125
Y13.275
X6.725 Y14.1
X7.875
X8.7 Y13.275
Y12.125
X8.4 Y12.25
X7.75 Y11.6
X6.85
X6.2 Y12.25
Y13.15
X6.85 Y13.8
X7.75
X8.4 Y13.15
Y12.25
X8.1 Y12.375
X7.625 Y11.9
X6.975
X6.5 Y12.375
Y13.025
X6.975 Y13.5
X7.625
X8.1 Y13.025
Y12.375
X7.8 Y12.5
X7.5 Y12.2
X7.1
X6.8 Y12.5
Y12.9
X7.1 Y13.2
X7.5
X7.8 Y12.9
Y12.5
X7.5 Y12.625
X7.375 Y12.5
X7.225
X7.1 Y12.625
Y12.775
X7.225 Y12.9
X7.375
X7.5 Y12.775
Y12.625
( group 154, uid=231 )
G0 Z2
X7.4 Y12.65
G1 Z0 F700
F3000
G1 X7.35 Y12.6
X7.25
X7.2 Y12.65
Y17.825
X7.25 Y17.875
X7.35
X7.4 Y17.825
Y12.65
( group 155, uid=373 )
G0 Z2
X5.625 Y15.1
G1 Z0 F700
F3000
G1 X5.05
( group 156, uid=323 )
G0 Z2
X5.2 Y15.55
G1 Z0 F700
F3000
G1 X5.05
Y14.525
X5.725 Y15.175
Y15.75
X5.2 Y15.55
( group 157, uid=222 )
G0 Z2
X4.85 Y17.725
G1 Z0 F700
F3000
G1 X4.8 Y17.675
X4.7
X4.65 Y17.725
Y21.65
X4.7 Y21.7
X4.8
X4.85 Y21.65
Y17.725
X4.75 Y21.6
X4.85 Y21.65
Y21.55
X4.8 Y21.5
X4.7
X2.125 Y24.075
Y24.175
X2.175 Y24.225
X2.275
X4.85 Y21.65
X2.225 Y24.125
X2.325 Y24.075
X2.275 Y24.025
X2.175
X2.125 Y24.075
Y26.725
X2.175 Y26.775
X2.275
X2.325 Y26.725
Y24.075
X2.225 Y26.675
X2.275 Y26.575
X2.175
X2.125 Y26.625
Y26.725
X4.7 Y29.3
X4.8
X4.85 Y29.25
Y29.15
X2.275 Y26.575
X4.75 Y29.2
X4.85 Y29.15
X4.8 Y29.1
X4.7
X4.65 Y29.15
Y31.8
X4.7 Y31.85
X4.8
X4.85 Y31.8
Y29.15
( group 158, uid=413 )
G0 Z2
X3.175 Y30.175
G1 Z0 F700
F3000
G1 X1.275
( group 159, uid=560 )
G0 Z2
X2.825 Y29.5
G1 Z0 F700
F3000
G1 Y46.975
( group 160, uid=329 )
G0 Z2
X1.275 Y46.975
G1 Z0 F700
F3000
G1 Y27.95
X3.175 Y29.85
Y32.075
X3.425 Y32.65
X3.875 Y33.075
X8.25 Y37.475
Y38.825
X8.2 Y38.875
X7.9 Y39.6
Y41.675
X8.2 Y42.4
X8.75 Y42.925
X9.45 Y43.225
X10.225
X10.925 Y42.925
X11.05 Y42.825
X12.3 Y44.075
X12.75 Y44.525
X13.325 Y44.75
X15.875
X16.525 Y45.425
X18.375
X19.7 Y44.1
Y42.85
X23.825 Y46.975
X1.275
( group 161, uid=439 )
G0 Z2
X8 Y41.9
G1 Z0 F700
F3000
G1 X1.275
( group 162, uid=435 )
G0 Z2
X7.9 Y40.225
G1 Z0 F700
F3000
G1 X1.275
( group 163, uid=555 )
G0 Z2
X6.175 Y35.4
G1 Z0 F700
F3000
G1 Y46.975
( group 164, uid=549 )
G0 Z2
X9.525 Y43.225
G1 Z0 F700
F3000
G1 Y46.975
( group 165, uid=443 )
G0 Z2
X11.825 Y43.575
G1 Z0 F700
F3000
G1 X1.275
( group 166, uid=573 )
G0 Z2
X9.35 Y41.4
G1 Z0 F700
F3000
G1 X9.425 Y41.55
X9.575 Y41.7
X9.725 Y41.775
X9.925
X10.075 Y41.7
X10.225 Y41.55
X10.3 Y41.4
Y39.875
X10.225 Y39.725
X10.075 Y39.575
X9.925 Y39.5
X9.725
X9.575 Y39.575
X9.425 Y39.725
X9.35 Y39.875
Y41.4
X9.675 Y41.725
Y39.55
X9.975
Y41.725
( group 167, uid=218 )
G0 Z2
X9.725 Y40.7
G1 Z0 F700
F3000
G1 X9.775 Y40.75
X9.875
X9.925 Y40.7
Y36.775
X9.875 Y36.725
X9.775
X9.725 Y36.775
Y40.7
X9.825 Y36.825
X9.775 Y36.925
X9.875
X9.925 Y36.875
Y36.775
X4.8 Y31.65
X4.7
X4.65 Y31.7
Y31.8
X9.775 Y36.925
( group 168, uid=552 )
G0 Z2
X7.85 Y37.075
G1 Z0 F700
F3000
G1 Y46.975
( group 169, uid=546 )
G0 Z2
X11.2 Y42.975
G1 Z0 F700
F3000
G1 Y46.975
( group 170, uid=544 )
G0 Z2
X12.875 Y44.575
G1 Z0 F700
F3000
G1 Y46.975
( group 171, uid=541 )
G0 Z2
X14.55 Y44.75
G1 Z0 F700
F3000
G1 Y46.975
( group 172, uid=446 )
G0 Z2
X16.375 Y45.275
G1 Z0 F700
F3000
G1 X1.275
( group 173, uid=432 )
G0 Z2
X8.25 Y38.55
G1 Z0 F700
F3000
G1 X1.275
( group 174, uid=424 )
G0 Z2
X5.975 Y35.2
G1 Z0 F700
F3000
G1 X1.275
( group 175, uid=420 )
G0 Z2
X4.3 Y33.525
G1 Z0 F700
F3000
G1 X1.275
( group 176, uid=416 )
G0 Z2
X3.175 Y31.85
G1 Z0 F700
F3000
G1 X1.275
( group 177, uid=408 )
G0 Z2
X1.825 Y28.5
G1 Z0 F700
F3000
G1 X1.275
( group 178, uid=579 )
G0 Z2
X4.2 Y25.975
G1 Z0 F700
F3000
G1 X4 Y26.175
X5.525
Y24.625
X4
Y26.175
X4.3 Y25.975
Y24.825
X4.6
Y25.975
X4.925
Y24.825
X5.225
Y25.975
( group 179, uid=264 )
G0 Z2
X4.625 Y24.75
G1 Z0 F700
F3000
G1 X4.4 Y24.85
X4.2 Y25.05
X4.1 Y25.275
Y25.525
X4.2 Y25.75
X4.4 Y25.95
X4.625 Y26.05
X7.425
X7.65 Y25.95
X7.85 Y25.75
X7.95 Y25.525
Y25.275
X7.85 Y25.05
X7.65 Y24.85
X7.425 Y24.75
X4.625
X4.2 Y25.075
X7.85
X7.925 Y25.4
X4.1
X4.2 Y25.725
X7.85
( group 180, uid=258 )
G0 Z2
X7.625 Y25.35
G1 Z0 F700
F3000
G1 X7.575 Y25.225
X7.475 Y25.125
X7.35 Y25.075
X7.25
X7.125 Y25.125
X7.025 Y25.225
X6.975 Y25.35
Y31.8
X7.025 Y31.925
X7.125 Y32.025
X7.25 Y32.075
X7.35
X7.475 Y32.025
X7.575 Y31.925
X7.625 Y31.8
Y25.35
X7.3 Y25.1
Y32.075
( group 181, uid=259 )
G0 Z2
X7.475 Y31.475
G1 Z0 F700
F3000
G1 X7.375 Y31.45
X7.25 Y31.425
X7.125 Y31.475
X7.025 Y31.575
X7 Y31.675
X6.975 Y31.8
X7.025 Y31.925
X9.65 Y34.575
X9.75 Y34.6
X9.875 Y34.625
X10 Y34.575
X10.1 Y34.475
X10.125 Y34.375
X10.15 Y34.25
X10.1 Y34.125
X7.475 Y31.475
X7.075 Y31.525
X10.05 Y34.525
X9.825 Y34.3
( group 182, uid=260 )
G0 Z2
X9.775 Y33.975
G1 Z0 F700
F3000
G1 X9.65 Y34.025
X9.55 Y34.125
X9.5 Y34.25
Y34.35
X9.55 Y34.475
X9.65 Y34.575
X9.775 Y34.625
X11.15
X11.275 Y34.575
X11.375 Y34.475
X11.425 Y34.35
Y34.25
X11.375 Y34.125
X11.275 Y34.025
X11.15 Y33.975
X9.775
X9.5 Y34.3
X11.4
( group 183, uid=269 )
G0 Z2
X11.425 Y34.25
G1 Z0 F700
F3000
G1 X11.375 Y34.125
X11.275 Y34.025
X11.15 Y33.975
X11.05
X10.925 Y34.025
X10.825 Y34.125
X10.775 Y34.25
Y35.6
X10.825 Y35.725
X10.925 Y35.825
X11.05 Y35.875
X11.15
X11.275 Y35.825
X11.375 Y35.725
X11.425 Y35.6
Y34.25
X11.1 Y34
Y35.875
( group 184, uid=270 )
G0 Z2
X11.275 Y35.275
G1 Z0 F700
F3000
G1 X11.15 Y35.225
X11.05
X10.925 Y35.275
X10.825 Y35.375
X10.775 Y35.5
Y35.6
X10.825 Y35.725
X14.75 Y39.65
X14.875 Y39.7
X14.975
X15.1 Y39.65
X15.2 Y39.55
X15.25 Y39.425
Y39.325
X15.2 Y39.2
X11.275 Y35.275
X10.875 Y35.325
X15.15 Y39.6
X14.925 Y39.375
( group 185, uid=271 )
G0 Z2
X15.25 Y39.325
G1 Z0 F700
F3000
G1 X15.2 Y39.2
X15.1 Y39.1
X14.975 Y39.05
X14.875
X14.75 Y39.1
X14.65 Y39.2
X14.6 Y39.325
Y40.7
X14.65 Y40.825
X14.75 Y40.925
X14.875 Y40.975
X14.975
X15.1 Y40.925
X15.2 Y40.825
X15.25 Y40.7
Y39.325
X14.925 Y39.075
Y40.975
( group 186, uid=574 )
G0 Z2
X14.45 Y41.4
G1 Z0 F700
F3000
G1 X14.525 Y41.55
X14.675 Y41.7
X14.825 Y41.775
X15.025
X15.175 Y41.7
X15.325 Y41.55
X15.4 Y41.4
Y39.875
X15.325 Y39.725
X15.175 Y39.575
X15.025 Y39.5
X14.825
X14.675 Y39.575
X14.525 Y39.725
X14.45 Y39.875
Y41.4
X14.775 Y41.725
Y39.55
X15.075
Y41.725
( group 187, uid=224 )
G0 Z2
X12.475 Y40.6
G1 Z0 F700
F3000
G1 X12.425 Y40.55
X12.325
X12.275 Y40.6
Y41.95
X12.325 Y42
X12.425
X12.475 Y41.95
Y40.6
X12.375 Y41.9
X12.425 Y41.8
X12.325
X12.275 Y41.85
Y41.95
X13.6 Y43.275
X13.7
X13.75 Y43.225
Y43.125
X12.425 Y41.8
X13.65 Y43.175
X13.6 Y43.075
X13.55 Y43.125
Y43.225
X13.6 Y43.275
X17.5
X17.55 Y43.225
Y43.125
X17.5 Y43.075
X13.6
( group 188, uid=575 )
G0 Z2
X11.9 Y41.4
G1 Z0 F700
F3000
G1 X11.975 Y41.55
X12.125 Y41.7
X12.275 Y41.775
X12.475
X12.625 Y41.7
X12.775 Y41.55
X12.85 Y41.4
Y39.875
X12.775 Y39.725
X12.625 Y39.575
X12.475 Y39.5
X12.275
X12.125 Y39.575
X11.975 Y39.725
X11.9 Y39.875
Y41.4
X12.225 Y41.725
Y39.55
X12.525
Y41.725
( group 189, uid=538 )
G0 Z2
X16.225 Y45.125
G1 Z0 F700
F3000
G1 Y46.975
( group 190, uid=536 )
G0 Z2
X17.9 Y45.425
G1 Z0 F700
F3000
G1 Y46.975
( group 191, uid=534 )
G0 Z2
X19.6 Y44.2
G1 Z0 F700
F3000
G1 Y46.975
( group 192, uid=445 )
G0 Z2
X22.1 Y45.275
G1 Z0 F700
F3000
G1 X18.525
( group 193, uid=594 )
G0 Z2
X18 Y43.075
G1 Z0 F700
F3000
G1 X18.2 Y42.875
X17.75 Y42.425
X17.15
X16.7 Y42.875
Y43.475
X17.15 Y43.925
X17.75
X18.2 Y43.475
Y42.875
X17.925 Y42.975
X17.65 Y42.7
X17.25
X16.975 Y42.975
Y43.375
X17.25 Y43.65
X17.65
X17.925 Y43.375
Y42.975
X17.65 Y43.1
X17.525 Y42.975
X17.375
X17.25 Y43.1
Y43.25
X17.375 Y43.375
X17.525
X17.65 Y43.25
Y43.1
( group 194, uid=442 )
G0 Z2
X20.425 Y43.575
G1 Z0 F700
F3000
G1 X19.7
( group 195, uid=531 )
G0 Z2
X21.275 Y44.425
G1 Z0 F700
F3000
G1 Y46.975
( group 196, uid=527 )
G0 Z2
X22.95 Y46.1
G1 Z0 F700
F3000
G1 Y46.975
( group 197, uid=448 )
G0 Z2
X23.775 Y46.95
G1 Z0 F700
F3000
G1 X1.275
( group 198, uid=428 )
G0 Z2
X7.65 Y36.875
G1 Z0 F700
F3000
G1 X1.275
( group 199, uid=557 )
G0 Z2
X4.5 Y33.725
G1 Z0 F700
F3000
G1 Y46.975
( group 200, uid=577 )
G0 Z2
X10.35 Y33.825
G1 Z0 F700
F3000
G1 X10.2 Y33.9
X10.05 Y34.05
X9.975 Y34.2
Y34.4
X10.05 Y34.55
X10.2 Y34.7
X10.35 Y34.775
X11.875
X12.025 Y34.7
X12.175 Y34.55
X12.25 Y34.4
Y34.2
X12.175 Y34.05
X12.025 Y33.9
X11.875 Y33.825
X10.35
X10.025 Y34.15
X12.2
Y34.45
X10.025
( group 201, uid=578 )
G0 Z2
X10.35 Y31.275
G1 Z0 F700
F3000
G1 X10.2 Y31.35
X10.05 Y31.5
X9.975 Y31.65
Y31.85
X10.05 Y32
X10.2 Y32.15
X10.35 Y32.225
X11.875
X12.025 Y32.15
X12.175 Y32
X12.25 Y31.85
Y31.65
X12.175 Y31.5
X12.025 Y31.35
X11.875 Y31.275
X10.35
X10.025 Y31.6
X12.2
Y31.9
X10.025
( group 202, uid=229 )
G0 Z2
X11.05 Y29.1
G1 Z0 F700
F3000
G1 X11 Y29.15
Y29.25
X11.05 Y29.3
X16.225
X16.275 Y29.25
Y29.15
X16.225 Y29.1
X11.05
X16.175 Y29.2
X16.075 Y29.25
X16.125 Y29.3
X16.225
X16.275 Y29.25
Y27.9
X16.225 Y27.85
X16.125
X16.075 Y27.9
Y29.25
X16.175 Y27.95
X16.075 Y27.9
Y28
X16.125 Y28.05
X16.225
X18.825 Y25.45
Y25.35
X18.775 Y25.3
X18.675
X16.075 Y27.9
X18.725 Y25.4
X18.675 Y25.3
X18.625 Y25.35
Y25.45
X18.675 Y25.5
X20.05
X20.1 Y25.45
Y25.35
X20.05 Y25.3
X18.675
( group 203, uid=585 )
G0 Z2
X19.425 Y25.975
G1 Z0 F700
F3000
G1 X19.225 Y26.175
X20.75
Y24.625
X19.225
Y26.175
X19.525 Y25.975
Y24.825
X19.825
Y25.975
X20.15
Y24.825
X20.45
Y25.975
( group 204, uid=535 )
G0 Z2
X17.9 Y23.825
G1 Z0 F700
F3000
G1 Y23.8
( group 205, uid=403 )
G0 Z2
X16.75 Y25.15
G1 Z0 F700
F3000
G1 X15.775
( group 206, uid=537 )
G0 Z2
X16.225 Y25.65
G1 Z0 F700
F3000
G1 Y23.8
( group 207, uid=628 )
G0 Z2
X13.65 Y24.125
G1 Z0 F700
F3000
G1 X12.8
G1 X12.800000 Y24.125000
G1 X12.864702 Y24.450281
G1 X13.048959 Y24.726041
G1 X13.324719 Y24.910298
G1 X13.650000 Y24.975000
G1 X13.975281 Y24.910298
G1 X14.251041 Y24.726041
G1 X14.435298 Y24.450281
G1 X14.500000 Y24.125000
G1 X14.435298 Y23.799719
G1 X14.251041 Y23.523959
G1 X13.975281 Y23.339702
G1 X13.650000 Y23.275000
G1 X13.324719 Y23.339702
G1 X13.048959 Y23.523959
G1 X12.864702 Y23.799719
G1 X12.800000 Y24.125000

G1 X13.025
G1 X13.025000 Y24.125000
G1 X13.072575 Y24.364177
G1 X13.208058 Y24.566942
G1 X13.410823 Y24.702425
G1 X13.650000 Y24.750000
G1 X13.889177 Y24.702425
G1 X14.091942 Y24.566942
G1 X14.227425 Y24.364177
G1 X14.275000 Y24.125000
G1 X14.227425 Y23.885823
G1 X14.091942 Y23.683058
G1 X13.889177 Y23.547575
G1 X13.650000 Y23.500000
G1 X13.410823 Y23.547575
G1 X13.208058 Y23.683058
G1 X13.072575 Y23.885823
G1 X13.025000 Y24.125000

G1 X13.25
G1 X13.250000 Y24.125000
G1 X13.280448 Y24.278073
G1 X13.367157 Y24.407843
G1 X13.496927 Y24.494552
G1 X13.650000 Y24.525000
G1 X13.803073 Y24.494552
G1 X13.932843 Y24.407843
G1 X14.019552 Y24.278073
G1 X14.050000 Y24.125000
G1 X14.019552 Y23.971927
G1 X13.932843 Y23.842157
G1 X13.803073 Y23.755448
G1 X13.650000 Y23.725000
G1 X13.496927 Y23.755448
G1 X13.367157 Y23.842157
G1 X13.280448 Y23.971927
G1 X13.250000 Y24.125000

( group 208, uid=273 )
G0 Z2
X11.825 Y25.05
G1 Z0 F700
F3000
G1 X11.75 Y25.275
X11.725 Y25.525
X11.825 Y25.75
X12.025 Y25.95
X12.25 Y26.025
X12.5 Y26.05
X12.725 Y25.95
X14.2 Y24.475
X14.275 Y24.25
X14.3 Y24
X14.2 Y23.775
X14 Y23.575
X13.775 Y23.5
X13.525 Y23.475
X13.3 Y23.575
X11.825 Y25.05
X11.75 Y25.575
X13.825 Y23.5
X14.1 Y23.675
X11.925 Y25.85
X12.2 Y26.025
X14.275 Y23.95
( group 209, uid=315 )
G0 Z2
X14.975 Y26.125
G1 Z0 F700
F3000
G1 X15.65 Y25.475
X16 Y24.6
Y23.8
X17.925
X17.8 Y24.1
X17.4 Y24.5
X14.85 Y27.05
X14.6 Y27.625
X12.925
X12.85 Y27.575
X12.7 Y27.5
X12.8
X13.575 Y27.175
X14.15 Y26.6
X14.375 Y26.375
X14.975 Y26.125
( group 210, uid=540 )
G0 Z2
X14.55 Y26.3
G1 Z0 F700
F3000
G1 Y27.625
( group 211, uid=406 )
G0 Z2
X15.075 Y26.825
G1 Z0 F700
F3000
G1 X13.925
( group 212, uid=543 )
G0 Z2
X12.875 Y27.475
G1 Z0 F700
F3000
G1 Y27.6
( group 213, uid=576 )
G0 Z2
X10.35 Y28.725
G1 Z0 F700
F3000
G1 X10.2 Y28.8
X10.05 Y28.95
X9.975 Y29.1
Y29.3
X10.05 Y29.45
X10.2 Y29.6
X10.35 Y29.675
X11.875
X12.025 Y29.6
X12.175 Y29.45
X12.25 Y29.3
Y29.1
X12.175 Y28.95
X12.025 Y28.8
X11.875 Y28.725
X10.35
X10.025 Y29.05
X12.2
Y29.35
X10.025
( group 214, uid=581 )
G0 Z2
X6.725 Y25.975
G1 Z0 F700
F3000
G1 X6.525 Y26.175
X8.05
Y24.625
X6.525
Y26.175
X6.825 Y25.975
Y24.825
X7.125
Y25.975
X7.45
Y24.825
X7.75
Y25.975
( group 215, uid=272 )
G0 Z2
X7.175 Y24.75
G1 Z0 F700
F3000
G1 X6.95 Y24.85
X6.75 Y25.05
X6.65 Y25.275
Y25.525
X6.75 Y25.75
X6.95 Y25.95
X7.175 Y26.05
X12.5
X12.725 Y25.95
X12.925 Y25.75
X13.025 Y25.525
Y25.275
X12.925 Y25.05
X12.725 Y24.85
X12.5 Y24.75
X7.175
X6.75 Y25.075
X12.925
X13 Y25.4
X6.65
X6.75 Y25.725
X12.925
X12.375 Y25.4
( group 216, uid=548 )
G0 Z2
X9.525 Y22.25
G1 Z0 F700
F3000
G1 Y23.3
( group 217, uid=316 )
G0 Z2
X8.525 Y23.175
G1 Z0 F700
F3000
G1 X6.075
X6.025
X5.975
X5.4
X6.1 Y22.475
X6.325 Y21.9
Y19.8
X6.85 Y20.025
X7.3
X10.4 Y23.125
X10.575 Y23.3
X8.825
X8.525 Y23.175
( group 218, uid=394 )
G0 Z2
X9.075 Y21.8
G1 Z0 F700
F3000
G1 X6.325
( group 219, uid=554 )
G0 Z2
X6.175 Y22.275
G1 Z0 F700
F3000
G1 Y23.175
( group 220, uid=551 )
G0 Z2
X7.85 Y20.575
G1 Z0 F700
F3000
G1 Y23.175
( group 221, uid=388 )
G0 Z2
X7.4 Y20.125
G1 Z0 F700
F3000
G1 X6.325
( group 222, uid=582 )
G0 Z2
X7.3 Y17.775
G1 Z0 F700
F3000
G1 X6.55
G1 X6.550000 Y17.775000
G1 X6.607090 Y18.062013
G1 X6.769670 Y18.305330
G1 X7.012987 Y18.467910
G1 X7.300000 Y18.525000
G1 X7.587013 Y18.467910
G1 X7.830330 Y18.305330
G1 X7.992910 Y18.062013
G1 X8.050000 Y17.775000
G1 X7.992910 Y17.487987
G1 X7.830330 Y17.244670
G1 X7.587013 Y17.082090
G1 X7.300000 Y17.025000
G1 X7.012987 Y17.082090
G1 X6.769670 Y17.244670
G1 X6.607090 Y17.487987
G1 X6.550000 Y17.775000

G1 X6.9
G1 X6.900000 Y17.775000
G1 X6.930448 Y17.928073
G1 X7.017157 Y18.057843
G1 X7.146927 Y18.144552
G1 X7.300000 Y18.175000
G1 X7.453073 Y18.144552
G1 X7.582843 Y18.057843
G1 X7.669552 Y17.928073
G1 X7.700000 Y17.775000
G1 X7.669552 Y17.621927
G1 X7.582843 Y17.492157
G1 X7.453073 Y17.405448
G1 X7.300000 Y17.375000
G1 X7.146927 Y17.405448
G1 X7.017157 Y17.492157
G1 X6.930448 Y17.621927
G1 X6.900000 Y17.775000

( group 223, uid=230 )
G0 Z2
X7.35 Y17.675
G1 Z0 F700
F3000
G1 X7.25
X7.2 Y17.725
Y17.825
X11.7 Y22.325
X11.8
X11.85 Y22.275
Y22.175
X7.35 Y17.675
X11.75 Y22.225
X11.7 Y22.125
X11.65 Y22.175
Y22.275
X11.7 Y22.325
X18.775
X18.825 Y22.275
Y22.175
X18.775 Y22.125
X11.7
X18.725 Y22.225
X18.775 Y22.125
X18.675
X18.625 Y22.175
Y22.275
X19.95 Y23.6
X20.05
X20.1 Y23.55
Y23.45
X18.775 Y22.125
X20 Y23.5
X20.1 Y23.45
X20.05 Y23.4
X19.95
X19.9 Y23.45
Y25.45
X19.95 Y25.5
X20.05
X20.1 Y25.45
Y23.45
( group 224, uid=297 )
G0 Z2
X21.325 Y29.525
G1 Z0 F700
F3000
G1 X21.45 Y29.475
X21.55 Y29.375
X21.6 Y29.25
Y29.15
X21.55 Y29.025
X21.45 Y28.925
X21.325 Y28.875
X18.675
X18.55 Y28.925
X18.45 Y29.025
X18.4 Y29.15
Y29.25
X18.45 Y29.375
X18.55 Y29.475
X18.675 Y29.525
X21.325
X21.575 Y29.2
X18.4
( group 225, uid=568 )
G0 Z2
X19.475 Y29.675
G1 Z0 F700
F3000
G1 X19.625 Y29.6
X19.775 Y29.45
X19.85 Y29.3
Y29.1
X19.775 Y28.95
X19.625 Y28.8
X19.475 Y28.725
X17.975
X17.825 Y28.8
X17.675 Y28.95
X17.6 Y29.1
Y29.3
X17.675 Y29.45
X17.825 Y29.6
X17.975 Y29.675
X19.475
X19.8 Y29.35
X17.65
Y29.05
X19.8
( group 226, uid=296 )
G0 Z2
X22.35 Y30.75
G1 Z0 F700
F3000
G1 X22.45 Y30.775
X22.575 Y30.8
X22.7 Y30.75
X22.8 Y30.65
X22.825 Y30.55
X22.85 Y30.425
X22.8 Y30.3
X21.45 Y28.925
X21.35 Y28.9
X21.225 Y28.875
X21.1 Y28.925
X21 Y29.025
X20.975 Y29.125
X20.95 Y29.25
X21 Y29.375
X22.35 Y30.75
X22.75 Y30.7
X21.05 Y28.975
X21.275 Y29.2
( group 227, uid=569 )
G0 Z2
X19.475 Y32.225
G1 Z0 F700
F3000
G1 X19.625 Y32.15
X19.775 Y32
X19.85 Y31.85
Y31.65
X19.775 Y31.5
X19.625 Y31.35
X19.475 Y31.275
X17.975
X17.825 Y31.35
X17.675 Y31.5
X17.6 Y31.65
Y31.85
X17.675 Y32
X17.825 Y32.15
X17.975 Y32.225
X19.475
X19.8 Y31.9
X17.65
Y31.6
X19.8
( group 228, uid=289 )
G0 Z2
X22.2 Y33.075
G1 Z0 F700
F3000
G1 X22.25 Y33.2
X22.35 Y33.3
X22.475 Y33.35
X22.575
X22.7 Y33.3
X22.8 Y33.2
X22.85 Y33.075
Y30.425
X22.8 Y30.3
X22.7 Y30.2
X22.575 Y30.15
X22.475
X22.35 Y30.2
X22.25 Y30.3
X22.2 Y30.425
Y33.075
X22.525 Y33.35
Y30.175
Y30.475
X22.475 Y30.375
X22.425 Y30.425
Y30.525
X22.475 Y30.575
X26.4
X26.45 Y30.525
Y30.425
X26.4 Y30.375
X22.475
( group 229, uid=566 )
G0 Z2
X24.325 Y31.275
G1 Z0 F700
F3000
G1 X24.175 Y31.35
X24.025 Y31.5
X23.95 Y31.65
Y31.85
X24.025 Y32
X24.175 Y32.15
X24.325 Y32.225
X25.825
X25.975 Y32.15
X26.125 Y32
X26.2 Y31.85
Y31.65
X26.125 Y31.5
X25.975 Y31.35
X25.825 Y31.275
X24.325
X24 Y31.6
X26.15
Y31.9
X24
( group 230, uid=233 )
G0 Z2
X25.025 Y31.65
G1 Z0 F700
F3000
G1 X24.975 Y31.7
Y31.8
X25.025 Y31.85
X27.675
X27.725 Y31.8
Y31.7
X27.675 Y31.65
X25.025
X27.625 Y31.75
X27.525 Y31.7
Y31.8
X27.575 Y31.85
X27.675
X30.25 Y29.25
Y29.15
X30.2 Y29.1
X30.1
X27.525 Y31.7
X30.15 Y29.2
X30.1 Y29.1
X30.05 Y29.15
Y29.25
X30.1 Y29.3
X31.475
X31.525 Y29.25
Y29.15
X31.475 Y29.1
X30.1
( group 231, uid=562 )
G0 Z2
X32.175 Y29.675
G1 Z0 F700
F3000
G1 X32.325 Y29.6
X32.475 Y29.45
X32.55 Y29.3
Y29.1
X32.475 Y28.95
X32.325 Y28.8
X32.175 Y28.725
X30.675
X30.525 Y28.8
X30.375 Y28.95
X30.3 Y29.1
Y29.3
X30.375 Y29.45
X30.525 Y29.6
X30.675 Y29.675
X32.175
X32.5 Y29.35
X30.35
Y29.05
X32.5
( group 232, uid=405 )
G0 Z2
X33.45 Y26.825
G1 Z0 F700
F3000
G1 X29.4
( group 233, uid=235 )
G0 Z2
X31.375 Y31.65
G1 Z0 F700
F3000
G1 X31.325 Y31.7
Y31.8
X31.375 Y31.85
X32.75
X32.8 Y31.8
Y31.7
X32.75 Y31.65
X31.375
X32.7 Y31.75
X32.75 Y31.65
X32.65
X32.6 Y31.7
Y31.8
X39 Y38.2
X39.1
X39.15 Y38.15
Y38.05
X32.75 Y31.65
X39.05 Y38.1
X39 Y38
X38.95 Y38.05
Y38.15
X39 Y38.2
X42.9
X42.95 Y38.15
Y38.05
X42.9 Y38
X39
( group 234, uid=501 )
G0 Z2
X38.025 Y39.3
G1 Z0 F700
F3000
G1 Y43.95
( group 235, uid=505 )
G0 Z2
X36.35 Y42.675
G1 Z0 F700
F3000
G1 Y43.95
( group 236, uid=328 )
G0 Z2
X35.275 Y43.575
G1 Z0 F700
F3000
G1 Y42.875
X36.15
X37.475 Y41.575
Y39.725
X36.15 Y38.4
X35.275
Y37.725
X35 Y37
X34.45 Y36.475
X33.75 Y36.175
X32.875
X32.925 Y36.025
X33.175 Y35.925
X33.725 Y35.375
X33.825 Y35.125
X37.7 Y39
X38.15 Y39.425
X38.725 Y39.675
X41.275
X41.925 Y40.325
X43.15
Y41.575
X44.475 Y42.875
X46
Y42.95
X46.3 Y43.675
X46.575 Y43.95
X35.125
X35.275 Y43.575
( group 237, uid=570 )
G0 Z2
X33.45 Y43.65
G1 Z0 F700
F3000
G1 X33.6 Y43.575
X33.75 Y43.425
X33.825 Y43.275
Y43.075
X33.75 Y42.925
X33.6 Y42.775
X33.45 Y42.7
X31.925
X31.775 Y42.775
X31.625 Y42.925
X31.55 Y43.075
Y43.275
X31.625 Y43.425
X31.775 Y43.575
X31.925 Y43.65
X33.45
X33.775 Y43.325
X31.6
Y43.025
X33.775
( group 238, uid=226 )
G0 Z2
X32.75 Y43.275
G1 Z0 F700
F3000
G1 X32.8 Y43.225
Y43.125
X32.75 Y43.075
X27.575
X27.525 Y43.125
Y43.225
X27.575 Y43.275
X32.75
( group 239, uid=572 )
G0 Z2
X33.45 Y41.125
G1 Z0 F700
F3000
G1 X33.6 Y41.05
X33.75 Y40.9
X33.825 Y40.75
Y40.55
X33.75 Y40.4
X33.6 Y40.25
X33.45 Y40.175
X31.925
X31.775 Y40.25
X31.625 Y40.4
X31.55 Y40.55
Y40.75
X31.625 Y40.9
X31.775 Y41.05
X31.925 Y41.125
X33.45
X33.775 Y40.8
X31.6
Y40.5
X33.775
( group 240, uid=234 )
G0 Z2
X32.65 Y40.55
G1 Z0 F700
F3000
G1 X32.6 Y40.6
Y40.7
X32.65 Y40.75
X35.275
X35.325 Y40.7
Y40.6
X35.275 Y40.55
X32.65
( group 241, uid=571 )
G0 Z2
X33.45 Y38.575
G1 Z0 F700
F3000
G1 X33.6 Y38.5
X33.75 Y38.35
X33.825 Y38.2
Y38
X33.75 Y37.85
X33.6 Y37.7
X33.45 Y37.625
X31.925
X31.775 Y37.7
X31.625 Y37.85
X31.55 Y38
Y38.2
X31.625 Y38.35
X31.775 Y38.5
X31.925 Y38.575
X33.45
X33.775 Y38.25
X31.6
Y37.95
X33.775
( group 242, uid=232 )
G0 Z2
X32.75 Y38.2
G1 Z0 F700
F3000
G1 X32.8 Y38.15
Y38.05
X32.75 Y38
X31.375
X31.325 Y38.05
Y38.15
X31.375 Y38.2
X32.75
X31.425 Y38.1
X31.525 Y38.15
Y38.05
X31.475 Y38
X31.375
X30.05 Y39.325
Y39.425
X30.1 Y39.475
X30.2
X31.525 Y38.15
X30.15 Y39.375
X30.2 Y39.475
X30.25 Y39.425
Y39.325
X30.2 Y39.275
X22.475
X22.425 Y39.325
Y39.425
X22.475 Y39.475
X30.2
X22.525 Y39.375
X22.475 Y39.475
X22.575
X22.625 Y39.425
Y39.325
X21.325 Y38
X21.225
X21.175 Y38.05
Y38.15
X22.475 Y39.475
X21.275 Y38.1
X21.175 Y38.15
X21.225 Y38.2
X21.325
X21.375 Y38.15
Y32.975
X21.325 Y32.925
X21.225
X21.175 Y32.975
Y38.15
X21.275 Y33.025
X21.225 Y33.125
X21.325
X21.375 Y33.075
Y32.975
X20.05 Y31.65
X19.95
X19.9 Y31.7
Y31.8
X21.225 Y33.125
X20 Y31.75
X20.05 Y31.85
X20.1 Y31.8
Y31.7
X20.05 Y31.65
X18.675
X18.625 Y31.7
Y31.8
X18.675 Y31.85
X20.05
( group 243, uid=228 )
G0 Z2
X18.775 Y34.4
G1 Z0 F700
F3000
G1 X18.825 Y34.35
Y34.25
X18.775 Y34.2
X17.4
X17.35 Y34.25
Y34.35
X17.4 Y34.4
X18.775
X17.45 Y34.3
X17.4 Y34.4
X17.5
X17.55 Y34.35
Y34.25
X16.225 Y32.925
X16.125
X16.075 Y32.975
Y33.075
X17.4 Y34.4
X16.175 Y33.025
X16.075 Y33.075
X16.125 Y33.125
X16.225
X16.275 Y33.075
Y29.15
X16.225 Y29.1
X16.125
X16.075 Y29.15
Y33.075
X16.175 Y29.2
( group 244, uid=567 )
G0 Z2
X19.475 Y34.775
G1 Z0 F700
F3000
G1 X19.625 Y34.7
X19.775 Y34.55
X19.85 Y34.4
Y34.2
X19.775 Y34.05
X19.625 Y33.9
X19.475 Y33.825
X17.975
X17.825 Y33.9
X17.675 Y34.05
X17.6 Y34.2
Y34.4
X17.675 Y34.55
X17.825 Y34.7
X17.975 Y34.775
X19.475
X19.8 Y34.45
X17.65
Y34.15
X19.8
( group 245, uid=596 )
G0 Z2
X18 Y36.725
G1 Z0 F700
F3000
G1 X18.2 Y36.525
X17.75 Y36.075
X17.15
X16.7 Y36.525
Y37.125
X17.15 Y37.575
X17.75
X18.2 Y37.125
Y36.525
X17.925 Y36.625
X17.65 Y36.35
X17.25
X16.975 Y36.625
Y37.025
X17.25 Y37.3
X17.65
X17.925 Y37.025
Y36.625
X17.65 Y36.75
X17.525 Y36.625
X17.375
X17.25 Y36.75
Y36.9
X17.375 Y37.025
X17.525
X17.65 Y36.9
Y36.75
( group 246, uid=225 )
G0 Z2
X17.5 Y36.925
G1 Z0 F700
F3000
G1 X17.55 Y36.875
Y36.775
X17.5 Y36.725
X16.125
X16.075 Y36.775
Y36.875
X16.125 Y36.925
X17.5
X16.175 Y36.825
X16.125 Y36.925
X16.225
X16.275 Y36.875
Y36.775
X14.975 Y35.45
X14.875
X14.825 Y35.5
Y35.6
X16.125 Y36.925
X14.925 Y35.55
X14.825 Y35.6
X14.875 Y35.65
X14.975
X15.025 Y35.6
Y32.975
X14.975 Y32.925
X14.875
X14.825 Y32.975
Y35.6
X14.925 Y33.025
X14.875 Y33.125
X14.975
X15.025 Y33.075
Y32.975
X13.7 Y31.65
X13.6
X13.55 Y31.7
Y31.8
X14.875 Y33.125
X13.65 Y31.75
X13.7 Y31.85
X13.75 Y31.8
Y31.7
X13.7 Y31.65
X11.05
X11 Y31.7
Y31.8
X11.05 Y31.85
X13.7
( group 247, uid=533 )
G0 Z2
X19.6 Y37.85
G1 Z0 F700
F3000
G1 Y38.85
( group 248, uid=431 )
G0 Z2
X19.75 Y38.55
G1 Z0 F700
F3000
G1 X18.9
( group 249, uid=330 )
G0 Z2
X19.7 Y37.75
G1 Z0 F700
F3000
G1 Y38.425
X19.875 Y38.85
X18.575
X19.7 Y37.75
( group 250, uid=268 )
G0 Z2
X20.05 Y40.975
G1 Z0 F700
F3000
G1 X20.175 Y40.925
X20.275 Y40.825
X20.325 Y40.7
Y40.6
X20.275 Y40.475
X20.175 Y40.375
X20.05 Y40.325
X14.875
X14.75 Y40.375
X14.65 Y40.475
X14.6 Y40.6
Y40.7
X14.65 Y40.825
X14.75 Y40.925
X14.875 Y40.975
X20.05
X20.3 Y40.65
X14.6
( group 251, uid=331 )
G0 Z2
X22.85 Y40.95
G1 Z0 F700
F3000
G1 X26.7
X25.375 Y42.25
Y43.5
X22.825 Y40.95
X22.85
( group 252, uid=526 )
G0 Z2
X22.95 Y40.95
G1 Z0 F700
F3000
G1 Y41.075
( group 253, uid=520 )
G0 Z2
X24.625 Y40.95
G1 Z0 F700
F3000
G1 Y42.75
( group 254, uid=438 )
G0 Z2
X25.725 Y41.9
G1 Z0 F700
F3000
G1 X23.775
( group 255, uid=516 )
G0 Z2
X26.3 Y40.95
G1 Z0 F700
F3000
G1 Y41.35
( group 256, uid=593 )
G0 Z2
X28.175 Y43.075
G1 Z0 F700
F3000
G1 X28.375 Y42.875
X27.925 Y42.425
X27.325
X26.875 Y42.875
Y43.475
X27.325 Y43.925
X27.925
X28.375 Y43.475
Y42.875
X28.1 Y42.975
X27.825 Y42.7
X27.425
X27.15 Y42.975
Y43.375
X27.425 Y43.65
X27.825
X28.1 Y43.375
Y42.975
X27.825 Y43.1
X27.7 Y42.975
X27.55
X27.425 Y43.1
Y43.25
X27.55 Y43.375
X27.7
X27.825 Y43.25
Y43.1
( group 257, uid=512 )
G0 Z2
X29.65 Y40.95
G1 Z0 F700
F3000
G1 Y41.6
( group 258, uid=310 )
G0 Z2
X30.1 Y41.025
G1 Z0 F700
F3000
G1 X30.35 Y41.6
X29.2
X28.55 Y40.95
X30.1
Y41.025
( group 259, uid=595 )
G0 Z2
X28.175 Y36.725
G1 Z0 F700
F3000
G1 X28.375 Y36.525
X27.925 Y36.075
X27.325
X26.875 Y36.525
Y37.125
X27.325 Y37.575
X27.925
X28.375 Y37.125
Y36.525
X28.1 Y36.625
X27.825 Y36.35
X27.425
X27.15 Y36.625
Y37.025
X27.425 Y37.3
X27.825
X28.1 Y37.025
Y36.625
X27.825 Y36.75
X27.7 Y36.625
X27.55
X27.425 Y36.75
Y36.9
X27.55 Y37.025
X27.7
X27.825 Y36.9
Y36.75
( group 260, uid=427 )
G0 Z2
X25.375 Y36.875
G1 Z0 F700
F3000
G1 X22.85
( group 261, uid=525 )
G0 Z2
X22.95 Y35.85
G1 Z0 F700
F3000
G1 Y37.55
( group 262, uid=311 )
G0 Z2
X24.025 Y36.225
G1 Z0 F700
F3000
G1 X25.375
Y37.75
X25.425 Y37.8
X23.175
X22.85 Y37.45
Y35.825
X23.45 Y36.075
X23.675
X24.025 Y36.225
( group 263, uid=519 )
G0 Z2
X24.625 Y36.225
G1 Z0 F700
F3000
G1 Y37.8
( group 264, uid=288 )
G0 Z2
X23.625 Y34.575
G1 Z0 F700
F3000
G1 X23.75 Y34.625
X23.85
X23.975 Y34.575
X24.075 Y34.475
X24.125 Y34.35
Y34.25
X24.075 Y34.125
X22.7 Y32.75
X22.575 Y32.7
X22.475
X22.35 Y32.75
X22.25 Y32.85
X22.2 Y32.975
Y33.075
X22.25 Y33.2
X23.625 Y34.575
X24.025 Y34.525
X22.3 Y32.8
X22.525 Y33.025
( group 265, uid=285 )
G0 Z2
X23.75 Y33.975
G1 Z0 F700
F3000
G1 X23.625 Y34.025
X23.525 Y34.125
X23.475 Y34.25
Y34.35
X23.525 Y34.475
X23.625 Y34.575
X23.75 Y34.625
X25.125
X25.25 Y34.575
X25.35 Y34.475
X25.4 Y34.35
Y34.25
X25.35 Y34.125
X25.25 Y34.025
X25.125 Y33.975
X23.75
X23.475 Y34.3
X25.375
( group 266, uid=565 )
G0 Z2
X24.325 Y33.825
G1 Z0 F700
F3000
G1 X24.175 Y33.9
X24.025 Y34.05
X23.95 Y34.2
Y34.4
X24.025 Y34.55
X24.175 Y34.7
X24.325 Y34.775
X25.825
X25.975 Y34.7
X26.125 Y34.55
X26.2 Y34.4
Y34.2
X26.125 Y34.05
X25.975 Y33.9
X25.825 Y33.825
X24.325
X24 Y34.15
X26.15
Y34.45
X24
( group 267, uid=514 )
G0 Z2
X27.975 Y33.3
G1 Z0 F700
F3000
G1 Y34.6
( group 268, uid=419 )
G0 Z2
X29 Y33.525
G1 Z0 F700
F3000
G1 X27.5
( group 269, uid=313 )
G0 Z2
X29.125 Y32.85
G1 Z0 F700
F3000
G1 X29.3 Y33.025
X29.125 Y33.2
X28.825 Y33.9
Y34.675
X28.975 Y35.05
X28.55 Y34.6
X27.675
Y33.9
X27.425 Y33.325
X27.925
X28.5 Y33.075
X29.025 Y32.575
X29.125 Y32.85
( group 270, uid=227 )
G0 Z2
X31.525 Y34.25
G1 Z0 F700
F3000
G1 X31.475 Y34.2
X31.375
X31.325 Y34.25
Y35.6
X31.375 Y35.65
X31.475
X31.525 Y35.6
Y34.25
X31.425 Y35.55
X31.525 Y35.6
Y35.5
X31.475 Y35.45
X31.375
X30.05 Y36.775
Y36.875
X30.1 Y36.925
X30.2
X31.525 Y35.6
X30.15 Y36.825
X30.2 Y36.925
X30.25 Y36.875
Y36.775
X30.2 Y36.725
X27.575
X27.525 Y36.775
Y36.875
X27.575 Y36.925
X30.2
( group 271, uid=561 )
G0 Z2
X32.175 Y34.775
G1 Z0 F700
F3000
G1 X32.325 Y34.7
X32.475 Y34.55
X32.55 Y34.4
Y34.2
X32.475 Y34.05
X32.325 Y33.9
X32.175 Y33.825
X30.675
X30.525 Y33.9
X30.375 Y34.05
X30.3 Y34.2
Y34.4
X30.375 Y34.55
X30.525 Y34.7
X30.675 Y34.775
X32.175
X32.5 Y34.45
X30.35
Y34.15
X32.5
( group 272, uid=423 )
G0 Z2
X33.925 Y35.2
G1 Z0 F700
F3000
G1 X33.8
( group 273, uid=509 )
G0 Z2
X33 Y36
G1 Z0 F700
F3000
G1 Y36.175
( group 274, uid=507 )
G0 Z2
X34.675 Y35.95
G1 Z0 F700
F3000
G1 Y36.7
( group 275, uid=426 )
G0 Z2
X35.6 Y36.875
G1 Z0 F700
F3000
G1 X34.875
( group 276, uid=504 )
G0 Z2
X36.35 Y37.625
G1 Z0 F700
F3000
G1 Y38.6
( group 277, uid=430 )
G0 Z2
X37.275 Y38.55
G1 Z0 F700
F3000
G1 X36.325
( group 278, uid=591 )
G0 Z2
X35.775 Y40.55
G1 Z0 F700
F3000
G1 X35.975 Y40.35
X35.525 Y39.9
X34.925
X34.475 Y40.35
Y40.95
X34.925 Y41.4
X35.525
X35.975 Y40.95
Y40.35
X35.7 Y40.45
X35.425 Y40.175
X35.025
X34.75 Y40.45
Y40.85
X35.025 Y41.125
X35.425
X35.7 Y40.85
Y40.45
X35.425 Y40.575
X35.3 Y40.45
X35.15
X35.025 Y40.575
Y40.725
X35.15 Y40.85
X35.3
X35.425 Y40.725
Y40.575
( group 279, uid=497 )
G0 Z2
X39.7 Y39.675
G1 Z0 F700
F3000
G1 Y43.95
( group 280, uid=434 )
G0 Z2
X41.825 Y40.225
G1 Z0 F700
F3000
G1 X37.475
( group 281, uid=493 )
G0 Z2
X41.375 Y39.8
G1 Z0 F700
F3000
G1 Y43.95
( group 282, uid=437 )
G0 Z2
X43.5 Y41.9
G1 Z0 F700
F3000
G1 X37.125
( group 283, uid=489 )
G0 Z2
X43.05 Y40.325
G1 Z0 F700
F3000
G1 Y43.95
( group 284, uid=483 )
G0 Z2
X44.725 Y42.875
G1 Z0 F700
F3000
G1 Y43.95
( group 285, uid=441 )
G0 Z2
X46.275 Y43.575
G1 Z0 F700
F3000
G1 X35.275
( group 286, uid=590 )
G0 Z2
X43.4 Y38
G1 Z0 F700
F3000
G1 X43.6 Y37.8
X43.15 Y37.35
X42.55
X42.1 Y37.8
Y38.4
X42.55 Y38.85
X43.15
X43.6 Y38.4
Y37.8
X43.325 Y37.9
X43.05 Y37.625
X42.65
X42.375 Y37.9
Y38.3
X42.65 Y38.575
X43.05
X43.325 Y38.3
Y37.9
X43.05 Y38.025
X42.925 Y37.9
X42.775
X42.65 Y38.025
Y38.175
X42.775 Y38.3
X42.925
X43.05 Y38.175
Y38.025
( group 287, uid=629 )
G0 Z2
X45.95 Y38
G1 Z0 F700
F3000
G1 X46.15 Y37.8
X45.7 Y37.35
X45.1
X44.65 Y37.8
Y38.4
X45.1 Y38.85
X45.7
X46.15 Y38.4
Y37.8
X45.875 Y37.9
X45.6 Y37.625
X45.2
X44.925 Y37.9
Y38.3
X45.2 Y38.575
X45.6
X45.875 Y38.3
Y37.9
X45.6 Y38.025
X45.475 Y37.9
X45.325
X45.2 Y38.025
Y38.175
X45.325 Y38.3
X45.475
X45.6 Y38.175
Y38.025
( group 288, uid=239 )
G0 Z2
X48.025 Y38.05
G1 Z0 F700
F3000
G1 X47.975 Y38
X47.875
X47.825 Y38.05
Y40.7
X47.875 Y40.75
X47.975
X48.025 Y40.7
Y38.05
X47.925 Y40.65
X48.025 Y40.6
X47.975 Y40.55
X47.875
X47.825 Y40.6
Y41.95
X47.875 Y42
X47.975
X48.025 Y41.95
Y40.6
X47.925 Y40.65
( group 289, uid=592 )
G0 Z2
X45.95 Y40.55
G1 Z0 F700
F3000
G1 X46.15 Y40.35
X45.7 Y39.9
X45.1
X44.65 Y40.35
Y40.95
X45.1 Y41.4
X45.7
X46.15 Y40.95
Y40.35
X45.875 Y40.45
X45.6 Y40.175
X45.2
X44.925 Y40.45
Y40.85
X45.2 Y41.125
X45.6
X45.875 Y40.85
Y40.45
X45.6 Y40.575
X45.475 Y40.45
X45.325
X45.2 Y40.575
Y40.725
X45.325 Y40.85
X45.475
X45.6 Y40.725
Y40.575
( group 290, uid=240 )
G0 Z2
X45.35 Y40.55
G1 Z0 F700
F3000
G1 X45.3 Y40.6
Y40.7
X45.35 Y40.75
X47.975
X48.025 Y40.7
Y40.6
X47.975 Y40.55
X45.35
( group 291, uid=624 )
G0 Z2
X47.45 Y42.675
G1 Z0 F700
F3000
G1 X47.525 Y42.825
X47.675 Y42.975
X47.825 Y43.05
X48.025
X48.175 Y42.975
X48.325 Y42.825
X48.4 Y42.675
Y41.15
X48.325 Y41
X48.175 Y40.85
X48.025 Y40.775
X47.825
X47.675 Y40.85
X47.525 Y41
X47.45 Y41.15
Y42.675
X47.775 Y43
Y40.825
X48.075
Y43
( group 292, uid=477 )
G0 Z2
X46.4 Y43.775
G1 Z0 F700
F3000
G1 Y43.95
( group 293, uid=626 )
G0 Z2
X50 Y42.675
G1 Z0 F700
F3000
G1 X50.075 Y42.825
X50.225 Y42.975
X50.375 Y43.05
X50.575
X50.725 Y42.975
X50.875 Y42.825
X50.95 Y42.675
Y41.15
X50.875 Y41
X50.725 Y40.85
X50.575 Y40.775
X50.375
X50.225 Y40.85
X50.075 Y41
X50 Y41.15
Y42.675
X50.325 Y43
Y40.825
X50.625
Y43
( group 294, uid=277 )
G0 Z2
X50.375 Y41.95
G1 Z0 F700
F3000
G1 X50.425 Y42
X50.525
X50.575 Y41.95
Y38.05
X50.525 Y38
X50.425
X50.375 Y38.05
Y41.95
( group 295, uid=625 )
G0 Z2
X52.55 Y42.675
G1 Z0 F700
F3000
G1 X52.625 Y42.825
X52.775 Y42.975
X52.925 Y43.05
X53.125
X53.275 Y42.975
X53.425 Y42.825
X53.5 Y42.675
Y41.15
X53.425 Y41
X53.275 Y40.85
X53.125 Y40.775
X52.925
X52.775 Y40.85
X52.625 Y41
X52.55 Y41.15
Y42.675
X52.875 Y43
Y40.825
X53.175
Y43
( group 296, uid=303 )
G0 Z2
X52.925 Y41.95
G1 Z0 F700
F3000
G1 X52.975 Y42
X53.075
X53.125 Y41.95
Y21.55
X53.075 Y21.5
X52.975
X52.925 Y21.55
Y41.95
X53.025 Y21.6
X52.975 Y21.7
X53.075
X53.125 Y21.65
Y21.55
X50.525 Y18.95
X50.425
X50.375 Y19
Y19.1
X52.975 Y21.7
X50.475 Y19.05
X50.525 Y19.15
X50.575 Y19.1
Y19
X50.525 Y18.95
X41.525
X41.475 Y19
Y19.1
X41.525 Y19.15
X50.525
X41.575 Y19.05
X41.525 Y19.15
X41.625
X41.675 Y19.1
Y19
X31.475 Y8.8
X31.375
X31.325 Y8.85
Y8.95
X41.525 Y19.15
X31.425 Y8.9
X31.325 Y8.95
X31.375 Y9
X31.475
X31.525 Y8.95
Y7.575
X31.475 Y7.525
X31.375
X31.325 Y7.575
Y8.95
X31.425 Y7.625
X31.375 Y7.725
X31.475
X31.525 Y7.675
Y7.575
X30.2 Y6.25
X30.1
X30.05 Y6.3
Y6.4
X31.375 Y7.725
( group 297, uid=280 )
G0 Z2
X36.575 Y3
G1 Z0 F700
F3000
G1 X36.75 Y2.925
X36.875 Y2.8
X36.95 Y2.625
Y2.475
X36.875 Y2.3
X36.75 Y2.175
X36.575 Y2.1
X30.075
X29.9 Y2.175
X29.775 Y2.3
X29.7 Y2.475
Y2.625
X29.775 Y2.8
X29.9 Y2.925
X30.075 Y3
X36.575
X36.9 Y2.7
X29.75
Y2.4
X36.9
X30.15 Y2.55
( group 298, uid=498 )
G0 Z2
X38.025 Y1.375
G1 Z0 F700
F3000
G1 Y1.275
( group 299, uid=612 )
G0 Z2
X39.6 Y4.975
G1 Z0 F700
F3000
G1 X39.8 Y4.775
X39.35 Y4.325
X38.75
X38.3 Y4.775
Y5.375
X38.75 Y5.825
X39.35
X39.8 Y5.375
Y4.775
X39.525 Y4.875
X39.25 Y4.6
X38.85
X38.575 Y4.875
Y5.275
X38.85 Y5.55
X39.25
X39.525 Y5.275
Y4.875
X39.25 Y5
X39.125 Y4.875
X38.975
X38.85 Y5
Y5.15
X38.975 Y5.275
X39.125
X39.25 Y5.15
Y5
( group 300, uid=279 )
G0 Z2
X38.8 Y5.45
G1 Z0 F700
F3000
G1 X38.975 Y5.525
X39.15 Y5.5
X39.3 Y5.45
X39.425 Y5.325
X39.5 Y5.15
X39.475 Y4.975
X39.425 Y4.825
X36.75 Y2.175
X36.575 Y2.1
X36.4 Y2.125
X36.25 Y2.175
X36.125 Y2.3
X36.05 Y2.475
X36.075 Y2.65
X36.125 Y2.8
X38.8 Y5.45
X39.25 Y5.475
X36.1 Y2.375
X36.3 Y2.15
X39.45 Y5.25
X36.5 Y2.55
( group 301, uid=613 )
G0 Z2
X39.6 Y10.05
G1 Z0 F700
F3000
G1 X39.8 Y9.85
X39.35 Y9.4
X38.75
X38.3 Y9.85
Y10.45
X38.75 Y10.9
X39.35
X39.8 Y10.45
Y9.85
X39.525 Y9.95
X39.25 Y9.675
X38.85
X38.575 Y9.95
Y10.35
X38.85 Y10.625
X39.25
X39.525 Y10.35
Y9.95
X39.25 Y10.075
X39.125 Y9.95
X38.975
X38.85 Y10.075
Y10.225
X38.975 Y10.35
X39.125
X39.25 Y10.225
Y10.075
( group 302, uid=496 )
G0 Z2
X39.7 Y12.4
G1 Z0 F700
F3000
G1 Y14.95
( group 303, uid=500 )
G0 Z2
X38.025 Y12.3
G1 Z0 F700
F3000
G1 Y13.275
( group 304, uid=492 )
G0 Z2
X41.375 Y12.075
G1 Z0 F700
F3000
G1 Y16.625
( group 305, uid=487 )
G0 Z2
X43.05 Y20.625
G1 Z0 F700
F3000
G1 Y24.25
( group 306, uid=398 )
G0 Z2
X45.7 Y23.475
G1 Z0 F700
F3000
G1 X42.1
( group 307, uid=299 )
G0 Z2
X40 Y25.45
G1 Z0 F700
F3000
G1 X40.05 Y25.575
X40.15 Y25.675
X40.275 Y25.725
X40.375
X40.5 Y25.675
X40.6 Y25.575
X40.65 Y25.45
Y20.275
X40.6 Y20.15
X40.5 Y20.05
X40.375 Y20
X40.275
X40.15 Y20.05
X40.05 Y20.15
X40 Y20.275
Y25.45
X40.325 Y25.725
Y20.025
Y20.325
( group 308, uid=216 )
G0 Z2
X38.775 Y20.825
G1 Z0 F700
F3000
G1 X38.575 Y21.025
X39.775
Y19.625
X38.575
Y21.025
X38.875 Y20.825
Y19.825
X39.175
Y20.825
X39.475
Y19.825
( group 309, uid=631 )
G0 Z2
X38.325 Y22.75
G1 Z0 F700
F3000
G1 X38.525 Y22.55
X38.075 Y22.1
X37.475
X37.025 Y22.55
Y23.15
X37.475 Y23.6
X38.075
X38.525 Y23.15
Y22.55
X38.25 Y22.65
X37.975 Y22.375
X37.575
X37.3 Y22.65
Y23.05
X37.575 Y23.325
X37.975
X38.25 Y23.05
Y22.65
X37.975 Y22.775
X37.85 Y22.65
X37.7
X37.575 Y22.775
Y22.925
X37.7 Y23.05
X37.85
X37.975 Y22.925
Y22.775
( group 310, uid=250 )
G0 Z2
X37.825 Y22.95
G1 Z0 F700
F3000
G1 X37.875 Y22.9
Y22.8
X37.825 Y22.75
X35.175
X35.125 Y22.8
Y22.9
X35.175 Y22.95
X37.825
( group 311, uid=602 )
G0 Z2
X37.775 Y25.4
G1 Z0 F700
F3000
G1 X37.225
G1 X37.225000 Y25.400000
G1 X37.266866 Y25.610476
G1 X37.386091 Y25.788909
G1 X37.564524 Y25.908134
G1 X37.775000 Y25.950000
G1 X37.985476 Y25.908134
G1 X38.163909 Y25.788909
G1 X38.283134 Y25.610476
G1 X38.325000 Y25.400000
G1 X38.283134 Y25.189524
G1 X38.163909 Y25.011091
G1 X37.985476 Y24.891866
G1 X37.775000 Y24.850000
G1 X37.564524 Y24.891866
G1 X37.386091 Y25.011091
G1 X37.266866 Y25.189524
G1 X37.225000 Y25.400000

G1 X37.375
G1 X37.375000 Y25.400000
G1 X37.405448 Y25.553073
G1 X37.492157 Y25.682843
G1 X37.621927 Y25.769552
G1 X37.775000 Y25.800000
G1 X37.928073 Y25.769552
G1 X38.057843 Y25.682843
G1 X38.144552 Y25.553073
G1 X38.175000 Y25.400000
G1 X38.144552 Y25.246927
G1 X38.057843 Y25.117157
G1 X37.928073 Y25.030448
G1 X37.775000 Y25.000000
G1 X37.621927 Y25.030448
G1 X37.492157 Y25.117157
G1 X37.405448 Y25.246927
G1 X37.375000 Y25.400000

( group 312, uid=601 )
G0 Z2
X37.775 Y27.95
G1 Z0 F700
F3000
G1 X37.225
G1 X37.225000 Y27.950000
G1 X37.266866 Y28.160476
G1 X37.386091 Y28.338909
G1 X37.564524 Y28.458134
G1 X37.775000 Y28.500000
G1 X37.985476 Y28.458134
G1 X38.163909 Y28.338909
G1 X38.283134 Y28.160476
G1 X38.325000 Y27.950000
G1 X38.283134 Y27.739524
G1 X38.163909 Y27.561091
G1 X37.985476 Y27.441866
G1 X37.775000 Y27.400000
G1 X37.564524 Y27.441866
G1 X37.386091 Y27.561091
G1 X37.266866 Y27.739524
G1 X37.225000 Y27.950000

G1 X37.375
G1 X37.375000 Y27.950000
G1 X37.405448 Y28.103073
G1 X37.492157 Y28.232843
G1 X37.621927 Y28.319552
G1 X37.775000 Y28.350000
G1 X37.928073 Y28.319552
G1 X38.057843 Y28.232843
G1 X38.144552 Y28.103073
G1 X38.175000 Y27.950000
G1 X38.144552 Y27.796927
G1 X38.057843 Y27.667157
G1 X37.928073 Y27.580448
G1 X37.775000 Y27.550000
G1 X37.621927 Y27.580448
G1 X37.492157 Y27.667157
G1 X37.405448 Y27.796927
G1 X37.375000 Y27.950000

( group 313, uid=251 )
G0 Z2
X37.825 Y28.05
G1 Z0 F700
F3000
G1 X37.875 Y28
Y27.9
X37.825 Y27.85
X35.175
X35.125 Y27.9
Y28
X35.175 Y28.05
X37.825
( group 314, uid=600 )
G0 Z2
X37.775 Y30.475
G1 Z0 F700
F3000
G1 X37.225
G1 X37.225000 Y30.475000
G1 X37.266866 Y30.685476
G1 X37.386091 Y30.863909
G1 X37.564524 Y30.983134
G1 X37.775000 Y31.025000
G1 X37.985476 Y30.983134
G1 X38.163909 Y30.863909
G1 X38.283134 Y30.685476
G1 X38.325000 Y30.475000
G1 X38.283134 Y30.264524
G1 X38.163909 Y30.086091
G1 X37.985476 Y29.966866
G1 X37.775000 Y29.925000
G1 X37.564524 Y29.966866
G1 X37.386091 Y30.086091
G1 X37.266866 Y30.264524
G1 X37.225000 Y30.475000

G1 X37.375
G1 X37.375000 Y30.475000
G1 X37.405448 Y30.628073
G1 X37.492157 Y30.757843
G1 X37.621927 Y30.844552
G1 X37.775000 Y30.875000
G1 X37.928073 Y30.844552
G1 X38.057843 Y30.757843
G1 X38.144552 Y30.628073
G1 X38.175000 Y30.475000
G1 X38.144552 Y30.321927
G1 X38.057843 Y30.192157
G1 X37.928073 Y30.105448
G1 X37.775000 Y30.075000
G1 X37.621927 Y30.105448
G1 X37.492157 Y30.192157
G1 X37.405448 Y30.321927
G1 X37.375000 Y30.475000

( group 315, uid=246 )
G0 Z2
X34.9 Y30.525
G1 Z0 F700
F3000
G1 X34.95 Y30.65
X35.05 Y30.75
X35.175 Y30.8
X35.275
X35.4 Y30.75
X35.5 Y30.65
X35.55 Y30.525
Y27.9
X35.5 Y27.775
X35.4 Y27.675
X35.275 Y27.625
X35.175
X35.05 Y27.675
X34.95 Y27.775
X34.9 Y27.9
Y30.525
X35.225 Y30.8
Y27.65
Y27.95
( group 316, uid=247 )
G0 Z2
X34.9 Y28
G1 Z0 F700
F3000
G1 X34.95 Y28.125
X35.05 Y28.225
X35.175 Y28.275
X35.275
X35.4 Y28.225
X35.5 Y28.125
X35.55 Y28
Y22.8
X35.5 Y22.675
X35.4 Y22.575
X35.275 Y22.525
X35.175
X35.05 Y22.575
X34.95 Y22.675
X34.9 Y22.8
Y28
X35.225 Y28.275
Y22.55
Y22.85
( group 317, uid=248 )
G0 Z2
X34.9 Y22.9
G1 Z0 F700
F3000
G1 X34.95 Y23.025
X35.05 Y23.125
X35.175 Y23.175
X35.275
X35.4 Y23.125
X35.5 Y23.025
X35.55 Y22.9
Y17.725
X35.5 Y17.6
X35.4 Y17.5
X35.275 Y17.45
X35.175
X35.05 Y17.5
X34.95 Y17.6
X34.9 Y17.725
Y22.9
X35.225 Y23.175
Y17.475
Y17.775
( group 318, uid=215 )
G0 Z2
X35.975 Y20.825
G1 Z0 F700
F3000
G1 X35.775 Y21.025
X36.975
Y19.625
X35.775
Y21.025
X36.075 Y20.825
Y19.825
X36.375
Y20.825
X36.675
Y19.825
( group 319, uid=597 )
G0 Z2
X39.95 Y25.75
G1 Z0 F700
F3000
G1 X39.75 Y25.95
X40.875
Y24.85
X39.75
Y25.95
X39.95 Y25.675
X40.675
Y25.4
X39.95
Y25.125
X40.675
( group 320, uid=598 )
G0 Z2
X40.325 Y27.95
G1 Z0 F700
F3000
G1 X39.775
G1 X39.775000 Y27.950000
G1 X39.816866 Y28.160476
G1 X39.936091 Y28.338909
G1 X40.114524 Y28.458134
G1 X40.325000 Y28.500000
G1 X40.535476 Y28.458134
G1 X40.713909 Y28.338909
G1 X40.833134 Y28.160476
G1 X40.875000 Y27.950000
G1 X40.833134 Y27.739524
G1 X40.713909 Y27.561091
G1 X40.535476 Y27.441866
G1 X40.325000 Y27.400000
G1 X40.114524 Y27.441866
G1 X39.936091 Y27.561091
G1 X39.816866 Y27.739524
G1 X39.775000 Y27.950000

G1 X39.925
G1 X39.925000 Y27.950000
G1 X39.955448 Y28.103073
G1 X40.042157 Y28.232843
G1 X40.171927 Y28.319552
G1 X40.325000 Y28.350000
G1 X40.478073 Y28.319552
G1 X40.607843 Y28.232843
G1 X40.694552 Y28.103073
G1 X40.725000 Y27.950000
G1 X40.694552 Y27.796927
G1 X40.607843 Y27.667157
G1 X40.478073 Y27.580448
G1 X40.325000 Y27.550000
G1 X40.171927 Y27.580448
G1 X40.042157 Y27.667157
G1 X39.955448 Y27.796927
G1 X39.925000 Y27.950000

( group 321, uid=599 )
G0 Z2
X40.325 Y30.475
G1 Z0 F700
F3000
G1 X39.775
G1 X39.775000 Y30.475000
G1 X39.816866 Y30.685476
G1 X39.936091 Y30.863909
G1 X40.114524 Y30.983134
G1 X40.325000 Y31.025000
G1 X40.535476 Y30.983134
G1 X40.713909 Y30.863909
G1 X40.833134 Y30.685476
G1 X40.875000 Y30.475000
G1 X40.833134 Y30.264524
G1 X40.713909 Y30.086091
G1 X40.535476 Y29.966866
G1 X40.325000 Y29.925000
G1 X40.114524 Y29.966866
G1 X39.936091 Y30.086091
G1 X39.816866 Y30.264524
G1 X39.775000 Y30.475000

G1 X39.925
G1 X39.925000 Y30.475000
G1 X39.955448 Y30.628073
G1 X40.042157 Y30.757843
G1 X40.171927 Y30.844552
G1 X40.325000 Y30.875000
G1 X40.478073 Y30.844552
G1 X40.607843 Y30.757843
G1 X40.694552 Y30.628073
G1 X40.725000 Y30.475000
G1 X40.694552 Y30.321927
G1 X40.607843 Y30.192157
G1 X40.478073 Y30.105448
G1 X40.325000 Y30.075000
G1 X40.171927 Y30.105448
G1 X40.042157 Y30.192157
G1 X39.955448 Y30.321927
G1 X39.925000 Y30.475000

( group 322, uid=604 )
G0 Z2
X39.95 Y33.375
G1 Z0 F700
F3000
G1 X39.75 Y33.575
X40.875
Y32.475
X39.75
Y33.575
X39.95 Y33.3
X40.675
Y33.025
X39.95
Y32.75
X40.675
( group 323, uid=488 )
G0 Z2
X43.05 Y32.05
G1 Z0 F700
F3000
G1 Y33.975
( group 324, uid=482 )
G0 Z2
X44.725 Y31.925
G1 Z0 F700
F3000
G1 Y34.1
( group 325, uid=476 )
G0 Z2
X46.4 Y30.425
G1 Z0 F700
F3000
G1 Y35.625
( group 326, uid=621 )
G0 Z2
X48.475 Y38
G1 Z0 F700
F3000
G1 X48.675 Y37.8
X48.225 Y37.35
X47.625
X47.175 Y37.8
Y38.4
X47.625 Y38.85
X48.225
X48.675 Y38.4
Y37.8
X48.4 Y37.9
X48.125 Y37.625
X47.725
X47.45 Y37.9
Y38.3
X47.725 Y38.575
X48.125
X48.4 Y38.3
Y37.9
X48.125 Y38.025
X48 Y37.9
X47.85
X47.725 Y38.025
Y38.175
X47.85 Y38.3
X48
X48.125 Y38.175
Y38.025
( group 327, uid=623 )
G0 Z2
X51.025 Y38
G1 Z0 F700
F3000
G1 X51.225 Y37.8
X50.775 Y37.35
X50.175
X49.725 Y37.8
Y38.4
X50.175 Y38.85
X50.775
X51.225 Y38.4
Y37.8
X50.95 Y37.9
X50.675 Y37.625
X50.275
X50 Y37.9
Y38.3
X50.275 Y38.575
X50.675
X50.95 Y38.3
Y37.9
X50.675 Y38.025
X50.55 Y37.9
X50.4
X50.275 Y38.025
Y38.175
X50.4 Y38.3
X50.55
X50.675 Y38.175
Y38.025
( group 328, uid=327 )
G0 Z2
X51.4 Y35.875
G1 Z0 F700
F3000
G1 X49.55
X49.2 Y36.2
X48.85 Y35.875
X47
X46.8 Y36.075
X46.725 Y35.95
X46.275 Y35.5
X45.025 Y34.225
X44.45 Y33.975
X42.35
Y32.05
X44.45
X45.025 Y31.825
X45.45 Y31.375
X46.725 Y30.1
X46.8 Y29.95
X47 Y30.175
X48.85
X49.2 Y29.825
X49.55 Y30.175
X51.4
X51.45 Y30.125
Y35.9
X51.4 Y35.875
( group 329, uid=422 )
G0 Z2
X51.45 Y35.2
G1 Z0 F700
F3000
G1 X46
( group 330, uid=412 )
G0 Z2
X47 Y30.175
G1 Z0 F700
F3000
G1 X46.65
( group 331, uid=472 )
G0 Z2
X48.075 Y30.175
G1 Z0 F700
F3000
G1 Y35.875
( group 332, uid=418 )
G0 Z2
X51.45 Y33.525
G1 Z0 F700
F3000
G1 X42.35
( group 333, uid=252 )
G0 Z2
X37.875 Y32.975
G1 Z0 F700
F3000
G1 X37.825 Y32.925
X37.725
X37.675 Y32.975
Y34.35
X37.725 Y34.4
X37.825
X37.875 Y34.35
Y32.975
X37.775 Y34.3
X37.825 Y34.2
X37.725
X37.675 Y34.25
Y34.35
X39 Y35.65
X39.1
X39.15 Y35.6
Y35.5
X37.825 Y34.2
X39.05 Y35.55
X39 Y35.45
X38.95 Y35.5
Y35.6
X39 Y35.65
X44.175
X44.225 Y35.6
Y35.5
X44.175 Y35.45
X39
X44.125 Y35.55
X44.175 Y35.45
X44.075
X44.025 Y35.5
Y35.6
X45.35 Y36.925
X45.45
X45.5 Y36.875
Y36.775
X44.175 Y35.45
X45.4 Y36.825
X45.5 Y36.775
X45.45 Y36.725
X45.35
X45.3 Y36.775
Y38.15
X45.35 Y38.2
X45.45
X45.5 Y38.15
Y36.775
( group 334, uid=415 )
G0 Z2
X51.45 Y31.85
G1 Z0 F700
F3000
G1 X44.925
( group 335, uid=630 )
G0 Z2
X45.95 Y27.85
G1 Z0 F700
F3000
G1 X46.15 Y27.65
X45.7 Y27.2
X45.1
X44.65 Y27.65
Y28.25
X45.1 Y28.7
X45.7
X46.15 Y28.25
Y27.65
X45.875 Y27.75
X45.6 Y27.475
X45.2
X44.925 Y27.75
Y28.15
X45.2 Y28.425
X45.6
X45.875 Y28.15
Y27.75
X45.6 Y27.875
X45.475 Y27.75
X45.325
X45.2 Y27.875
Y28.025
X45.325 Y28.15
X45.475
X45.6 Y28.025
Y27.875
( group 336, uid=589 )
G0 Z2
X43.4 Y27.85
G1 Z0 F700
F3000
G1 X43.6 Y27.65
X43.15 Y27.2
X42.55
X42.1 Y27.65
Y28.25
X42.55 Y28.7
X43.15
X43.6 Y28.25
Y27.65
X43.325 Y27.75
X43.05 Y27.475
X42.65
X42.375 Y27.75
Y28.15
X42.65 Y28.425
X43.05
X43.325 Y28.15
Y27.75
X43.05 Y27.875
X42.925 Y27.75
X42.775
X42.65 Y27.875
Y28.025
X42.775 Y28.15
X42.925
X43.05 Y28.025
Y27.875
( group 337, uid=238 )
G0 Z2
X42.9 Y28.05
G1 Z0 F700
F3000
G1 X42.95 Y28
Y27.9
X42.9 Y27.85
X40.275
X40.225 Y27.9
Y28
X40.275 Y28.05
X42.9
( group 338, uid=276 )
G0 Z2
X47.975 Y28.05
G1 Z0 F700
F3000
G1 X48.025 Y28
Y27.9
X47.975 Y27.85
X45.35
X45.3 Y27.9
Y28
X45.35 Y28.05
X47.975
X45.4 Y27.95
X45.5 Y27.9
X45.45 Y27.85
X45.35
X45.3 Y27.9
Y29.25
X45.35 Y29.3
X45.45
X45.5 Y29.25
Y27.9
X45.4 Y29.2
X45.5 Y29.25
Y29.15
X45.45 Y29.1
X45.35
X44.025 Y30.425
Y30.525
X44.075 Y30.575
X44.175
X45.5 Y29.25
X44.125 Y30.475
X44.175 Y30.575
X44.225 Y30.525
Y30.425
X44.175 Y30.375
X40.275
X40.225 Y30.425
Y30.525
X40.275 Y30.575
X44.175
( group 339, uid=620 )
G0 Z2
X48.475 Y27.85
G1 Z0 F700
F3000
G1 X48.675 Y27.65
X48.225 Y27.2
X47.625
X47.175 Y27.65
Y28.25
X47.625 Y28.7
X48.225
X48.675 Y28.25
Y27.65
X48.4 Y27.75
X48.125 Y27.475
X47.725
X47.45 Y27.75
Y28.15
X47.725 Y28.425
X48.125
X48.4 Y28.15
Y27.75
X48.125 Y27.875
X48 Y27.75
X47.85
X47.725 Y27.875
Y28.025
X47.85 Y28.15
X48
X48.125 Y28.025
Y27.875
( group 340, uid=236 )
G0 Z2
X50.375 Y28
G1 Z0 F700
F3000
G1 X50.425 Y28.05
X50.525
X50.575 Y28
Y26.625
X50.525 Y26.575
X50.425
X50.375 Y26.625
Y28
X50.475 Y26.675
X50.425 Y26.775
X50.525
X50.575 Y26.725
Y26.625
X49.25 Y25.3
X49.15
X49.1 Y25.35
Y25.45
X50.425 Y26.775
X49.2 Y25.4
X49.25 Y25.5
X49.3 Y25.45
Y25.35
X49.25 Y25.3
X47.875
X47.825 Y25.35
Y25.45
X47.875 Y25.5
X49.25
X47.925 Y25.4
X47.975 Y25.5
X48.025 Y25.45
Y25.35
X47.975 Y25.3
X44.075
X44.025 Y25.35
Y25.45
X44.075 Y25.5
X47.975
X44.125 Y25.4
X44.225 Y25.45
Y25.35
X44.175 Y25.3
X44.075
X42.75 Y26.625
Y26.725
X42.8 Y26.775
X42.9
X44.225 Y25.45
X42.85 Y26.675
X42.95 Y26.625
X42.9 Y26.575
X42.8
X42.75 Y26.625
Y28
X42.8 Y28.05
X42.9
X42.95 Y28
Y26.625
( group 341, uid=326 )
G0 Z2
X45.7 Y21.925
G1 Z0 F700
F3000
G1 Y23.775
X45.75 Y23.825
X43.8
X43.225 Y24.075
X42.35 Y24.95
Y24.4
X42.15 Y23.925
X42.1 Y23.875
Y20.625
X47
X45.7 Y21.925
( group 342, uid=392 )
G0 Z2
X45.85 Y21.8
G1 Z0 F700
F3000
G1 X42.1
( group 343, uid=481 )
G0 Z2
X44.725 Y20.625
G1 Z0 F700
F3000
G1 Y23.825
( group 344, uid=237 )
G0 Z2
X48.025 Y22.8
G1 Z0 F700
F3000
G1 X47.975 Y22.75
X47.875
X47.825 Y22.8
Y25.45
X47.875 Y25.5
X47.975
X48.025 Y25.45
Y22.8
( group 345, uid=632 )
G0 Z2
X48.475 Y22.75
G1 Z0 F700
F3000
G1 X48.675 Y22.55
X48.225 Y22.1
X47.625
X47.175 Y22.55
Y23.15
X47.625 Y23.6
X48.225
X48.675 Y23.15
Y22.55
X48.4 Y22.65
X48.125 Y22.375
X47.725
X47.45 Y22.65
Y23.05
X47.725 Y23.325
X48.125
X48.4 Y23.05
Y22.65
X48.125 Y22.775
X48 Y22.65
X47.85
X47.725 Y22.775
Y22.925
X47.85 Y23.05
X48
X48.125 Y22.925
Y22.775
( group 346, uid=468 )
G0 Z2
X49.775 Y20.625
G1 Z0 F700
F3000
G1 Y21.525
( group 347, uid=391 )
G0 Z2
X51 Y21.8
G1 Z0 F700
F3000
G1 X50.025
( group 348, uid=325 )
G0 Z2
X51.45 Y22.25
G1 Z0 F700
F3000
G1 Y25.4
X50.55 Y24.5
X50.1 Y24.075
X49.95 Y24
X50.175 Y23.775
Y21.925
X48.85 Y20.625
X49.825
X51.45 Y22.25
( group 349, uid=397 )
G0 Z2
X51.45 Y23.475
G1 Z0 F700
F3000
G1 X50.175
( group 350, uid=401 )
G0 Z2
X51.45 Y25.15
G1 Z0 F700
F3000
G1 X51.175
( group 351, uid=622 )
G0 Z2
X51.025 Y27.85
G1 Z0 F700
F3000
G1 X51.225 Y27.65
X50.775 Y27.2
X50.175
X49.725 Y27.65
Y28.25
X50.175 Y28.7
X50.775
X51.225 Y28.25
Y27.65
X50.95 Y27.75
X50.675 Y27.475
X50.275
X50 Y27.75
Y28.15
X50.275 Y28.425
X50.675
X50.95 Y28.15
Y27.75
X50.675 Y27.875
X50.55 Y27.75
X50.4
X50.275 Y27.875
Y28.025
X50.4 Y28.15
X50.55
X50.675 Y28.025
Y27.875
( group 352, uid=410 )
G0 Z2
X51.45 Y30.175
G1 Z0 F700
F3000
G1 X51.4
( group 353, uid=469 )
G0 Z2
X49.775 Y30.175
G1 Z0 F700
F3000
G1 Y35.875
( group 354, uid=411 )
G0 Z2
X49.55 Y30.175
G1 Z0 F700
F3000
G1 X48.85
( group 355, uid=409 )
G0 Z2
X57.325 Y30.175
G1 Z0 F700
F3000
G1 X61.9
( group 356, uid=407 )
G0 Z2
X57.325 Y28.5
G1 Z0 F700
F3000
G1 X61.9
( group 357, uid=404 )
G0 Z2
X57.325 Y26.825
G1 Z0 F700
F3000
G1 X61.9
( group 358, uid=400 )
G0 Z2
X57.325 Y25.15
G1 Z0 F700
F3000
G1 X61.9
( group 359, uid=396 )
G0 Z2
X57.325 Y23.475
G1 Z0 F700
F3000
G1 X61.9
( group 360, uid=390 )
G0 Z2
X57.325 Y21.8
G1 Z0 F700
F3000
G1 X61.9
( group 361, uid=381 )
G0 Z2
X59.5 Y18.45
G1 Z0 F700
F3000
G1 X61.9
( group 362, uid=454 )
G0 Z2
X58.15 Y18.875
G1 Z0 F700
F3000
G1 Y46.975
( group 363, uid=444 )
G0 Z2
X55.975 Y45.275
G1 Z0 F700
F3000
G1 X61.9
( group 364, uid=440 )
G0 Z2
X57.3 Y43.575
G1 Z0 F700
F3000
G1 X61.9
( group 365, uid=436 )
G0 Z2
X57.325 Y41.9
G1 Z0 F700
F3000
G1 X61.9
( group 366, uid=433 )
G0 Z2
X57.325 Y40.225
G1 Z0 F700
F3000
G1 X61.9
( group 367, uid=429 )
G0 Z2
X57.325 Y38.55
G1 Z0 F700
F3000
G1 X61.9
( group 368, uid=425 )
G0 Z2
X57.325 Y36.875
G1 Z0 F700
F3000
G1 X61.9
( group 369, uid=421 )
G0 Z2
X57.325 Y35.2
G1 Z0 F700
F3000
G1 X61.9
( group 370, uid=417 )
G0 Z2
X57.325 Y33.525
G1 Z0 F700
F3000
G1 X61.9
( group 371, uid=414 )
G0 Z2
X57.325 Y31.85
G1 Z0 F700
F3000
G1 X61.9
( group 372, uid=385 )
G0 Z2
X57.325 Y20.125
G1 Z0 F700
F3000
G1 X61.9
( group 373, uid=617 )
G0 Z2
X58.1 Y16.5
G1 Z0 F700
F3000
G1 X57.25
G1 X57.250000 Y16.500000
G1 X57.314702 Y16.825281
G1 X57.498959 Y17.101041
G1 X57.774719 Y17.285298
G1 X58.100000 Y17.350000
G1 X58.425281 Y17.285298
G1 X58.701041 Y17.101041
G1 X58.885298 Y16.825281
G1 X58.950000 Y16.500000
G1 X58.885298 Y16.174719
G1 X58.701041 Y15.898959
G1 X58.425281 Y15.714702
G1 X58.100000 Y15.650000
G1 X57.774719 Y15.714702
G1 X57.498959 Y15.898959
G1 X57.314702 Y16.174719
G1 X57.250000 Y16.500000

G1 X57.475
G1 X57.475000 Y16.500000
G1 X57.522575 Y16.739177
G1 X57.658058 Y16.941942
G1 X57.860823 Y17.077425
G1 X58.100000 Y17.125000
G1 X58.339177 Y17.077425
G1 X58.541942 Y16.941942
G1 X58.677425 Y16.739177
G1 X58.725000 Y16.500000
G1 X58.677425 Y16.260823
G1 X58.541942 Y16.058058
G1 X58.339177 Y15.922575
G1 X58.100000 Y15.875000
G1 X57.860823 Y15.922575
G1 X57.658058 Y16.058058
G1 X57.522575 Y16.260823
G1 X57.475000 Y16.500000

G1 X57.7
G1 X57.700000 Y16.500000
G1 X57.730448 Y16.653073
G1 X57.817157 Y16.782843
G1 X57.946927 Y16.869552
G1 X58.100000 Y16.900000
G1 X58.253073 Y16.869552
G1 X58.382843 Y16.782843
G1 X58.469552 Y16.653073
G1 X58.500000 Y16.500000
G1 X58.469552 Y16.346927
G1 X58.382843 Y16.217157
G1 X58.253073 Y16.130448
G1 X58.100000 Y16.100000
G1 X57.946927 Y16.130448
G1 X57.817157 Y16.217157
G1 X57.730448 Y16.346927
G1 X57.700000 Y16.500000

( group 374, uid=274 )
G0 Z2
X57.775 Y16.55
G1 Z0 F700
F3000
G1 X57.825 Y16.675
X57.925 Y16.775
X58.05 Y16.825
X58.15
X58.275 Y16.775
X58.375 Y16.675
X58.425 Y16.55
Y11.375
X58.375 Y11.25
X58.275 Y11.15
X58.15 Y11.1
X58.05
X57.925 Y11.15
X57.825 Y11.25
X57.775 Y11.375
Y16.55
X58.1 Y16.825
Y11.125
( group 375, uid=352 )
G0 Z2
X55.4 Y10.05
G1 Z0 F700
F3000
G1 X50.35
( group 376, uid=465 )
G0 Z2
X51.45 Y6.975
G1 Z0 F700
F3000
G1 Y11.15
( group 377, uid=357 )
G0 Z2
X55.225 Y11.725
G1 Z0 F700
F3000
G1 X52.025
( group 378, uid=362 )
G0 Z2
X56.025 Y13.4
G1 Z0 F700
F3000
G1 X53.45
( group 379, uid=367 )
G0 Z2
X56.175 Y15.1
G1 Z0 F700
F3000
G1 X53.525
( group 380, uid=376 )
G0 Z2
X55.725 Y16.775
G1 Z0 F700
F3000
G1 X54.525
( group 381, uid=457 )
G0 Z2
X56.475 Y18.225
G1 Z0 F700
F3000
G1 Y18.725
( group 382, uid=382 )
G0 Z2
X56.675 Y18.45
G1 Z0 F700
F3000
G1 X56.2
( group 383, uid=257 )
G0 Z2
X55.875 Y20.275
G1 Z0 F700
F3000
G1 X55.825 Y20.15
X55.725 Y20.05
X55.6 Y20
X55.5
X55.375 Y20.05
X55.275 Y20.15
X55.225 Y20.275
Y43.225
X55.275 Y43.35
X55.375 Y43.45
X55.5 Y43.5
X55.6
X55.725 Y43.45
X55.825 Y43.35
X55.875 Y43.225
Y20.275
X55.55 Y20.025
Y43.5
( group 384, uid=265 )
G0 Z2
X55.825 Y43.35
G1 Z0 F700
F3000
G1 X55.875 Y43.225
X55.85 Y43.1
X55.825 Y43
X55.725 Y42.9
X55.6 Y42.85
X55.475 Y42.875
X55.375 Y42.9
X52.75 Y45.55
X52.7 Y45.675
X52.725 Y45.8
X52.75 Y45.9
X52.85 Y46
X52.975 Y46.05
X53.1 Y46.025
X53.2 Y46
X55.825 Y43.35
X55.775 Y42.95
X52.8 Y45.95
X53.025 Y45.725
( group 385, uid=266 )
G0 Z2
X53.075 Y46.05
G1 Z0 F700
F3000
G1 X53.2 Y46
X53.3 Y45.9
X53.35 Y45.775
Y45.675
X53.3 Y45.55
X53.2 Y45.45
X53.075 Y45.4
X25.025
X24.9 Y45.45
X24.8 Y45.55
X24.75 Y45.675
Y45.775
X24.8 Y45.9
X24.9 Y46
X25.025 Y46.05
X53.075
X53.325 Y45.725
X24.75
( group 386, uid=267 )
G0 Z2
X24.9 Y46
G1 Z0 F700
F3000
G1 X25.025 Y46.05
X25.125
X25.25 Y46
X25.35 Y45.9
X25.4 Y45.775
Y45.675
X25.35 Y45.55
X20.175 Y40.375
X20.05 Y40.325
X19.95
X19.825 Y40.375
X19.725 Y40.475
X19.675 Y40.6
Y40.7
X19.725 Y40.825
X24.9 Y46
X25.3 Y45.95
X19.775 Y40.425
X20 Y40.65
( group 387, uid=563 )
G0 Z2
X32.175 Y32.225
G1 Z0 F700
F3000
G1 X32.325 Y32.15
X32.475 Y32
X32.55 Y31.85
Y31.65
X32.475 Y31.5
X32.325 Y31.35
X32.175 Y31.275
X30.675
X30.525 Y31.35
X30.375 Y31.5
X30.3 Y31.65
Y31.85
X30.375 Y32
X30.525 Y32.15
X30.675 Y32.225
X32.175
X32.5 Y31.9
X30.35
Y31.6
X32.5
( group 388, uid=245 )
G0 Z2
X37.6 Y33.3
G1 Z0 F700
F3000
G1 X37.725 Y33.35
X37.825
X37.95 Y33.3
X38.05 Y33.2
X38.1 Y33.075
Y32.975
X38.05 Y32.85
X35.4 Y30.2
X35.275 Y30.15
X35.175
X35.05 Y30.2
X34.95 Y30.3
X34.9 Y30.425
Y30.525
X34.95 Y30.65
X37.6 Y33.3
X38 Y33.25
X35 Y30.25
X35.225 Y30.475
( group 389, uid=603 )
G0 Z2
X37.775 Y33.025
G1 Z0 F700
F3000
G1 X37.225
G1 X37.225000 Y33.025000
G1 X37.266866 Y33.235476
G1 X37.386091 Y33.413909
G1 X37.564524 Y33.533134
G1 X37.775000 Y33.575000
G1 X37.985476 Y33.533134
G1 X38.163909 Y33.413909
G1 X38.283134 Y33.235476
G1 X38.325000 Y33.025000
G1 X38.283134 Y32.814524
G1 X38.163909 Y32.636091
G1 X37.985476 Y32.516866
G1 X37.775000 Y32.475000
G1 X37.564524 Y32.516866
G1 X37.386091 Y32.636091
G1 X37.266866 Y32.814524
G1 X37.225000 Y33.025000

G1 X37.375
G1 X37.375000 Y33.025000
G1 X37.405448 Y33.178073
G1 X37.492157 Y33.307843
G1 X37.621927 Y33.394552
G1 X37.775000 Y33.425000
G1 X37.928073 Y33.394552
G1 X38.057843 Y33.307843
G1 X38.144552 Y33.178073
G1 X38.175000 Y33.025000
G1 X38.144552 Y32.871927
G1 X38.057843 Y32.742157
G1 X37.928073 Y32.655448
G1 X37.775000 Y32.625000
G1 X37.621927 Y32.655448
G1 X37.492157 Y32.742157
G1 X37.405448 Y32.871927
G1 X37.375000 Y33.025000

( group 390, uid=475 )
G0 Z2
X46.4 Y20.625
G1 Z0 F700
F3000
G1 Y21.225
( group 391, uid=324 )
G0 Z2
X45.575 Y15.175
G1 Z0 F700
F3000
G1 Y17.475
X42.225
X33 Y8.25
Y8.075
X36.7 Y11.775
X37.4 Y12.075
X37.8
X38.125 Y12.4
X39.975
X40.3 Y12.075
X46.15
Y14.325
X46.125 Y14.35
X45.775 Y14.7
X45.575 Y15.175
( group 392, uid=368 )
G0 Z2
X45.6 Y15.1
G1 Z0 F700
F3000
G1 X39.85
( group 393, uid=486 )
G0 Z2
X43.05 Y12.075
G1 Z0 F700
F3000
G1 Y17.475
( group 394, uid=363 )
G0 Z2
X46.15 Y13.4
G1 Z0 F700
F3000
G1 X38.175
( group 395, uid=610 )
G0 Z2
X47.25 Y5.775
G1 Z0 F700
F3000
G1 X47.05 Y5.975
X48.825
Y4.2
X47.05
Y5.975
X47.35 Y5.775
Y4.4
X47.65
Y5.775
X47.95
Y4.4
X48.225
Y5.775
X48.525
Y4.4
( group 396, uid=283 )
G0 Z2
X47.85 Y4.625
G1 Z0 F700
F3000
G1 X47.675 Y4.7
X47.55 Y4.825
X47.475 Y5
Y5.15
X47.55 Y5.325
X47.675 Y5.45
X47.85 Y5.525
X56.9
X57.075 Y5.45
X57.2 Y5.325
X57.275 Y5.15
Y5
X57.2 Y4.825
X57.075 Y4.7
X56.9 Y4.625
X47.85
X47.525 Y4.925
X57.225
Y5.225
X47.525
( group 397, uid=278 )
G0 Z2
X48 Y5.525
G1 Z0 F700
F3000
G1 X48.175 Y5.45
X48.3 Y5.325
X48.375 Y5.15
Y5
X48.3 Y4.825
X48.175 Y4.7
X48 Y4.625
X38.975
X38.8 Y4.7
X38.675 Y4.825
X38.6 Y5
Y5.15
X38.675 Y5.325
X38.8 Y5.45
X38.975 Y5.525
X48
X48.325 Y5.225
X38.65
Y4.925
X48.325
X39.05 Y5.075
( group 398, uid=463 )
G0 Z2
X53.125 Y6.975
G1 Z0 F700
F3000
G1 Y12.825
( group 399, uid=460 )
G0 Z2
X54.8 Y6.975
G1 Z0 F700
F3000
G1 Y17.05
( group 400, uid=261 )
G0 Z2
X55.375 Y20.6
G1 Z0 F700
F3000
G1 X55.475 Y20.625
X55.6 Y20.65
X55.725 Y20.6
X55.825 Y20.5
X55.85 Y20.4
X55.875 Y20.275
X55.825 Y20.15
X51.925 Y16.225
X51.825 Y16.2
X51.7 Y16.175
X51.575 Y16.225
X51.475 Y16.325
X51.45 Y16.425
X51.425 Y16.55
X51.475 Y16.675
X55.375 Y20.6
X55.775 Y20.55
X51.525 Y16.275
X51.75 Y16.5
( group 401, uid=458 )
G0 Z2
X56.475 Y44.775
G1 Z0 F700
F3000
G1 Y46.975
( group 402, uid=461 )
G0 Z2
X54.8 Y46.45
G1 Z0 F700
F3000
G1 Y46.975
( group 403, uid=447 )
G0 Z2
X54.3 Y46.95
G1 Z0 F700
F3000
G1 X61.9
( group 404, uid=223 )
G0 Z2
X12.325 Y21.05
G1 Z0 F700
F3000
G1 X12.425
X12.475 Y21
Y20.9
X11.15 Y19.575
X11.05
X11 Y19.625
Y19.725
X12.325 Y21.05
X11.1 Y19.675
X11 Y19.725
X11.05 Y19.775
X11.15
X11.2 Y19.725
Y10.1
X11.15 Y10.05
X11.05
X11 Y10.1
Y19.725
X11.1 Y10.15
X11.05 Y10.25
X11.15
X11.2 Y10.2
Y10.1
X8.625 Y7.525
X8.525
X8.475 Y7.575
Y7.675
X11.05 Y10.25
X8.575 Y7.625
X8.625 Y7.725
X8.675 Y7.675
Y7.575
X8.625 Y7.525
X7.25
X7.2 Y7.575
Y7.675
X7.25 Y7.725
X8.625
( group 405, uid=344 )
G0 Z2
X13.125 Y6.7
G1 Z0 F700
F3000
G1 X10.175
( group 406, uid=298 )
G0 Z2
X14.65 Y4.9
G1 Z0 F700
F3000
G1 X14.6 Y5.025
Y5.125
X14.65 Y5.25
X14.75 Y5.35
X14.875 Y5.4
X14.975
X15.1 Y5.35
X17.725 Y2.725
X17.775 Y2.6
Y2.5
X17.725 Y2.375
X17.625 Y2.275
X17.5 Y2.225
X17.4
X17.275 Y2.275
X14.65 Y4.9
X14.7 Y5.3
X17.675 Y2.325
( group 407, uid=333 )
G0 Z2
X15.8 Y1.675
G1 Z0 F700
F3000
G1 X1.275
( group 408, uid=355 )
G0 Z2
X1.9 Y10.05
G1 Z0 F700
F3000
G1 X1.275
( group 409, uid=360 )
G0 Z2
X1.9 Y11.725
G1 Z0 F700
F3000
G1 X1.275
( group 410, uid=365 )
G0 Z2
X1.9 Y13.4
G1 Z0 F700
F3000
G1 X1.275
( group 411, uid=374 )
G0 Z2
X1.9 Y15.1
G1 Z0 F700
F3000
G1 X1.275
( group 412, uid=380 )
G0 Z2
X1.9 Y16.775
G1 Z0 F700
F3000
G1 X1.275
( group 413, uid=384 )
G0 Z2
X2.6 Y18.45
G1 Z0 F700
F3000
G1 X1.275
( group 414, uid=559 )
G0 Z2
X2.825 Y18.95
G1 Z0 F700
F3000
G1 Y21.3
( group 415, uid=395 )
G0 Z2
X2.325 Y21.8
G1 Z0 F700
F3000
G1 X1.275
( group 416, uid=389 )
G0 Z2
X3.175 Y20.125
G1 Z0 F700
F3000
G1 X1.275
( group 417, uid=221 )
G0 Z2
X4.7 Y17.875
G1 Z0 F700
F3000
G1 X4.8
X4.85 Y17.825
Y17.725
X3.525 Y16.4
X3.425
X3.375 Y16.45
Y16.55
X4.7 Y17.875
X3.475 Y16.5
X3.375 Y16.55
X3.425 Y16.6
X3.525
X3.575 Y16.55
Y10.1
X3.525 Y10.05
X3.425
X3.375 Y10.1
Y16.55
X3.475 Y10.15
X3.375 Y10.1
Y10.2
X3.425 Y10.25
X3.525
X6.125 Y7.675
Y7.575
X6.075 Y7.525
X5.975
X3.375 Y10.1
X6.025 Y7.625
X5.975 Y7.525
X5.925 Y7.575
Y7.675
X5.975 Y7.725
X7.35
X7.4 Y7.675
Y7.575
X7.35 Y7.525
X5.975
( group 418, uid=372 )
G0 Z2
X9.525 Y15.1
G1 Z0 F700
F3000
G1 X8.975
( group 419, uid=314 )
G0 Z2
X9.2 Y16.525
G1 Z0 F700
F3000
G1 X8.875 Y16.2
Y15.175
X9.525 Y14.525
Y17.325
X9.2 Y16.525
( group 420, uid=379 )
G0 Z2
X9.525 Y16.775
G1 Z0 F700
F3000
G1 X9.3
( group 421, uid=542 )
G0 Z2
X12.875 Y16.7
G1 Z0 F700
F3000
G1 Y1.275
( group 422, uid=539 )
G0 Z2
X14.55 Y2.925
G1 Z0 F700
F3000
G1 Y1.275
( group 423, uid=371 )
G0 Z2
X13.125 Y15.1
G1 Z0 F700
F3000
G1 X12.675
( group 424, uid=318 )
G0 Z2
X13.125 Y16.575
G1 Z0 F700
F3000
X13.025 Y16.7
X12.675
Y9.85
X12.45 Y9.275
X10.175 Y7
Y6.425
X8.475 Y4.75
X6.1
X4.425 Y6.425
Y7
X2.15 Y9.275
X1.9 Y9.85
Y16.825
X2.15 Y17.4
X2.525 Y17.775
Y18.225
X2.85 Y19.05
X3.175 Y19.375
Y20.95
X1.325 Y22.8
X1.275 Y22.85
Y1.275
X16.2
X13.4 Y4.075
X13.125 Y4.725
Y5.425
Y16.575
( group 425, uid=309 )
G0 Z2
X13.1 Y18.7
G1 Z0 F700
F3000
G1 X13.025 Y18.925
X13 Y19.175
X13.1 Y19.4
X13.3 Y19.6
X13.525 Y19.675
X13.775 Y19.7
X14 Y19.6
X15.475 Y18.125
X15.55 Y17.9
X15.575 Y17.65
X15.475 Y17.425
X15.275 Y17.225
X15.05 Y17.15
X14.8 Y17.125
X14.575 Y17.225
X13.1 Y18.7
X13.025 Y19.225
X15.1 Y17.15
X15.375 Y17.325
X13.2 Y19.5
X13.475 Y19.675
X15.55 Y17.6
( group 426, uid=627 )
G0 Z2
X12.95 Y19.75
G1 Z0 F700
F3000
G1 X12.75 Y19.95
X14.525
Y18.15
X12.75
Y19.95
X13.05 Y19.75
Y18.35
X13.35
Y19.75
X13.625
Y18.35
X13.925
Y19.75
X14.225
Y18.35
( group 427, uid=580 )
G0 Z2
X4.75 Y17.775
G1 Z0 F700
F3000
G1 X4
G1 X4.000000 Y17.775000
G1 X4.057090 Y18.062013
G1 X4.219670 Y18.305330
G1 X4.462987 Y18.467910
G1 X4.750000 Y18.525000
G1 X5.037013 Y18.467910
G1 X5.280330 Y18.305330
G1 X5.442910 Y18.062013
G1 X5.500000 Y17.775000
G1 X5.442910 Y17.487987
G1 X5.280330 Y17.244670
G1 X5.037013 Y17.082090
G1 X4.750000 Y17.025000
G1 X4.462987 Y17.082090
G1 X4.219670 Y17.244670
G1 X4.057090 Y17.487987
G1 X4.000000 Y17.775000

G1 X4.35
G1 X4.350000 Y17.775000
G1 X4.380448 Y17.928073
G1 X4.467157 Y18.057843
G1 X4.596927 Y18.144552
G1 X4.750000 Y18.175000
G1 X4.903073 Y18.144552
G1 X5.032843 Y18.057843
G1 X5.119552 Y17.928073
G1 X5.150000 Y17.775000
G1 X5.119552 Y17.621927
G1 X5.032843 Y17.492157
G1 X4.903073 Y17.405448
G1 X4.750000 Y17.375000
G1 X4.596927 Y17.405448
G1 X4.467157 Y17.492157
G1 X4.380448 Y17.621927
G1 X4.350000 Y17.775000


( end )
G0 Z20
X63.175 Y0
M2
